;FLAVOR:Marlin
M73 P0
M117 Time Left 0h54m45s
;TIME:3285
;Filament used: 2.02129m
;Layer height: 0.2
;MINX:42.695
;MINY:81.122
;MINZ:0.2
;MAXX:174.726
;MAXY:138.842
;MAXZ:5.6
;TARGET_MACHINE.NAME:Creality Ender-3 Pro
;POSTPROCESSED
;Generated with Cura_SteamEngine 5.5.0
;
;
M140 S70
M105
M190 S70
M104 S220
M105
M109 S220
M82 ;absolute extrusion mode
G28 ;Home
G92 E0 ;Reset Extruder
M420 S1 Z10 ; Use saved Bed Mesh
G1 Z2.0 F3000 ;Move Z Axis up
G1 X10.1 Y20 Z0.28 F5000.0 ;Move to start position
G1 X10.1 Y200.0 Z0.28 F1500.0 E15 ;Draw the first line
G1 X10.4 Y200.0 Z0.28 F5000.0 ;Move to side a little
G1 X10.4 Y20 Z0.28 F1500.0 E30 ;Draw the second line
G92 E0 ;Reset Extruder
G1 Z2.0 F3000 ;Move Z Axis up
G92 E0
G92 E0
G1 F2400 E-0.8
;LAYER_COUNT:26
;LAYER:0
M117 DASHBOARD_LAYER_INDICATOR 1
M117 Printing Layer 0 of 25 F45 Long hook 3IN
M107
G1 F300 Z0.6
G0 F3000 X48.336 Y94.836 Z0.6
;TYPE:SKIRT
G1 F300 Z0.2
G1 F2400 E0
G1 F1200 X49.39 Y94.498 E0.0405
G1 X55.255 Y94.491 E0.25507
G1 X55.44 Y94.357 E0.26343
G1 X56.545 Y93.788 E0.3089
G1 X57.407 Y93.666 E0.34076
G1 X142.046 Y93.641 E3.43737
G1 X143.373 Y93.985 E3.48753
G1 X144.254 Y94.451 E3.52399
G1 X144.795 Y94.832 E3.5482
G1 X145.658 Y95.904 E3.59855
G1 X145.916 Y96.321 E3.61649
G1 X146.402 Y97.435 E3.66096
G1 X146.538 Y97.938 E3.68002
G1 X148.348 Y108.164 E4.05996
G1 X148.23 Y109.105 E4.09466
G1 X147.99 Y110.012 E4.12899
G1 X147.343 Y111.095 E4.17514
G1 X146.42 Y111.891 E4.21973
G1 X145.352 Y112.457 E4.26396
G1 X140.988 Y113.23 E4.4261
G1 X139.787 Y113.083 E4.47037
G1 X138.724 Y112.682 E4.51194
G1 X138.438 Y112.522 E4.52393
G1 X137.504 Y111.683 E4.56986
G1 X137.257 Y111.361 E4.58471
G1 X136.667 Y110.194 E4.63255
G1 X135.838 Y105.505 E4.80676
G1 X64.982 Y105.505 E7.39911
G1 X64.81 Y105.603 E7.40636
G1 X64.707 Y105.78 E7.41385
G1 X64.688 Y125.417 E8.13229
G1 X64.532 Y126.485 E8.17178
G1 X64.326 Y127.145 E8.19707
G1 X63.986 Y127.931 E8.22841
G1 X63.398 Y128.758 E8.26553
G1 X62.916 Y129.277 E8.29145
G1 X62.114 Y129.923 E8.32912
G1 X61.461 Y130.298 E8.35667
G1 X60.558 Y130.657 E8.39222
G1 X59.48 Y130.874 E8.43246
G1 X59.207 Y130.895 E8.44247
G1 X54.498 Y130.907 E8.61476
G1 X54.138 Y131.036 E8.62875
G1 X53.92 Y131.22 E8.63919
G1 X53.742 Y131.522 E8.65201
G1 X53.707 Y131.902 E8.66597
G1 X53.707 Y135.179 E8.78587
G1 X53.19 Y136.593 E8.84095
G1 X52.656 Y137.326 E8.87413
G1 X52.053 Y137.953 E8.90595
G1 X51.118 Y138.5 E8.94559
G1 X50.074 Y138.835 E8.9857
G1 X46.36 Y138.842 E9.12158
G1 X44.967 Y138.334 E9.17583
G1 X44.001 Y137.651 E9.21911
G1 X43.463 Y136.974 E9.25075
G1 X43.038 Y136.262 E9.28109
G1 X42.7 Y135.208 E9.32158
G1 X42.695 Y131.685 E9.45048
G1 X42.862 Y129.663 E9.52471
G1 X43.388 Y127.699 E9.59909
G1 X44.282 Y125.785 E9.67638
G1 X45.428 Y124.171 E9.7488
G1 X46.922 Y122.651 E9.82678
G1 X48.919 Y121.324 E9.9145
G1 X50.616 Y120.562 E9.98256
G1 X52.442 Y120.068 E10.05177
G1 X53.693 Y119.964 E10.0977
G1 X53.693 Y105.505 E10.62669
G1 X49.419 Y105.505 E10.78306
G1 X48.005 Y104.988 E10.83815
G1 X47.272 Y104.454 E10.87133
G1 X46.645 Y103.851 E10.90315
G1 X46.098 Y102.916 E10.94278
G1 X45.763 Y101.872 E10.9829
G1 X45.756 Y98.158 E11.11878
G1 X46.264 Y96.765 E11.17303
G1 X46.947 Y95.799 E11.21631
G1 X47.624 Y95.261 E11.24795
G1 X48.336 Y94.836 E11.27829
G0 F3000 X48.52 Y95.239
G1 F1200 X49.459 Y94.938 E11.31436
G1 X55.407 Y94.931 E11.53198
G1 X55.641 Y94.748 E11.54284
G1 X56.678 Y94.214 E11.58552
G1 X57.469 Y94.102 E11.61475
G1 X141.99 Y94.081 E14.70705
G1 X143.212 Y94.398 E14.75323
G1 X144.001 Y94.811 E14.78582
G1 X144.491 Y95.156 E14.80774
G1 X145.284 Y96.136 E14.85386
G1 X145.542 Y96.553 E14.8718
G1 X145.977 Y97.55 E14.9116
G1 X146.113 Y98.053 E14.93066
G1 X147.903 Y108.173 E15.30666
G1 X147.793 Y109.05 E15.339
G1 X147.58 Y109.839 E15.3689
G1 X147 Y110.81 E15.41028
G1 X146.172 Y111.524 E15.45028
G1 X145.206 Y112.036 E15.49028
G1 X140.977 Y112.785 E15.64741
G1 X139.89 Y112.652 E15.68748
G1 X138.939 Y112.298 E15.7246
G1 X138.694 Y112.161 E15.73487
G1 X137.829 Y111.384 E15.77741
G1 X137.631 Y111.126 E15.78931
G1 X137.089 Y110.053 E15.83329
G1 X136.207 Y105.065 E16.01862
G1 X65.133 Y105.065 E18.61894
G1 X64.816 Y105.092 E18.63058
G1 X64.488 Y105.28 E18.64441
G1 X64.296 Y105.611 E18.65841
G1 X64.267 Y105.932 E18.6702
G1 X64.248 Y125.417 E19.38308
G1 X64.112 Y126.355 E19.41776
G1 X63.922 Y126.97 E19.44131
G1 X63.6 Y127.713 E19.47094
G1 X63.039 Y128.503 E19.50639
G1 X62.595 Y128.976 E19.53012
G1 X61.893 Y129.543 E19.56314
G1 X61.298 Y129.889 E19.58832
G1 X60.43 Y130.234 E19.62249
G1 X59.446 Y130.435 E19.65924
G1 X59.173 Y130.456 E19.66925
G1 X54.652 Y130.467 E19.83466
G1 X54.35 Y130.493 E19.84575
G1 X53.915 Y130.649 E19.86266
G1 X53.579 Y130.932 E19.87873
G1 X53.313 Y131.382 E19.89785
G1 X53.267 Y131.884 E19.9163
G1 X53.267 Y135.102 E20.03403
G1 X52.799 Y136.382 E20.08389
G1 X52.3 Y137.067 E20.1149
G1 X51.779 Y137.604 E20.14227
G1 X50.937 Y138.096 E20.17795
G1 X50.005 Y138.395 E20.21376
G1 X46.437 Y138.402 E20.3443
G1 X45.173 Y137.941 E20.39353
G1 X44.308 Y137.329 E20.43229
G1 X43.841 Y136.748 E20.45957
G1 X43.441 Y136.078 E20.48812
G1 X43.14 Y135.139 E20.52419
G1 X43.134 Y131.721 E20.64924
G1 X43.298 Y129.736 E20.72211
G1 X43.803 Y127.851 E20.79351
G1 X44.664 Y126.008 E20.86793
G1 X45.787 Y124.426 E20.93891
G1 X47.203 Y122.992 E21.01265
G1 X49.1 Y121.725 E21.09611
G1 X50.731 Y120.987 E21.1616
G1 X52.523 Y120.502 E21.22952
G1 X54.133 Y120.368 E21.28863
G1 X54.133 Y105.065 E21.84851
G1 X49.496 Y105.065 E22.01816
G1 X48.216 Y104.597 E22.06802
G1 X47.531 Y104.098 E22.09903
G1 X46.994 Y103.577 E22.1264
G1 X46.502 Y102.735 E22.16208
G1 X46.203 Y101.803 E22.19789
G1 X46.196 Y98.235 E22.32843
G1 X46.657 Y96.971 E22.37765
G1 X47.269 Y96.106 E22.41642
G1 X47.85 Y95.639 E22.44369
G1 X48.52 Y95.239 E22.47224
G0 F3000 X48.704 Y95.642
G1 F1200 X49.528 Y95.378 E22.5039
G1 X55.569 Y95.371 E22.72492
G1 X55.842 Y95.139 E22.73802
G1 X56.811 Y94.64 E22.7779
G1 X57.531 Y94.538 E22.80451
G1 X141.934 Y94.521 E25.89249
G1 X143.052 Y94.811 E25.93474
G1 X143.748 Y95.171 E25.96341
G1 X144.188 Y95.481 E25.9831
G1 X144.91 Y96.368 E26.02495
G1 X145.168 Y96.785 E26.04289
G1 X145.552 Y97.665 E26.07802
G1 X145.688 Y98.168 E26.09708
G1 X147.458 Y108.182 E26.46913
G1 X147.356 Y108.995 E26.49911
G1 X147.172 Y109.664 E26.52449
G1 X146.657 Y110.525 E26.5612
G1 X145.924 Y111.157 E26.59661
G1 X145.06 Y111.615 E26.63239
G1 X140.966 Y112.34 E26.7845
G1 X139.992 Y112.221 E26.8204
G1 X139.092 Y111.886 E26.85554
G1 X138.951 Y111.801 E26.86156
G1 X138.123 Y111.057 E26.90228
G1 X138.024 Y110.928 E26.90823
G1 X137.511 Y109.912 E26.94988
G1 X136.576 Y104.625 E27.14631
G1 X65.12 Y104.625 E29.76061
G1 X64.68 Y104.662 E29.77676
G1 X64.263 Y104.901 E29.79435
G1 X64.11 Y105.054 E29.80226
G1 X63.867 Y105.475 E29.82005
G1 X63.827 Y105.914 E29.83618
G1 X63.808 Y125.417 E30.54972
G1 X63.691 Y126.227 E30.57966
G1 X63.518 Y126.795 E30.60138
G1 X63.214 Y127.497 E30.62937
G1 X62.716 Y128.204 E30.66101
G1 X62.316 Y128.635 E30.68252
G1 X61.669 Y129.164 E30.7131
G1 X61.135 Y129.48 E30.7358
G1 X60.303 Y129.811 E30.76856
G1 X59.412 Y129.996 E30.80185
G1 X59.139 Y130.017 E30.81187
G1 X54.636 Y130.027 E30.97662
G1 X54.271 Y130.059 E30.99002
G1 X53.966 Y130.141 E31.00158
G1 X53.69 Y130.269 E31.01271
G1 X53.456 Y130.434 E31.02319
G1 X53.239 Y130.65 E31.03439
G1 X53.061 Y130.905 E31.04576
G1 X52.942 Y131.158 E31.05599
G1 X52.864 Y131.456 E31.06726
G1 X52.827 Y131.866 E31.08233
G1 X52.827 Y135.025 E31.1979
G1 X52.408 Y136.171 E31.24254
G1 X51.944 Y136.808 E31.27138
G1 X51.506 Y137.254 E31.29425
G1 X50.756 Y137.692 E31.32602
G1 X49.936 Y137.955 E31.35753
G1 X46.514 Y137.962 E31.48273
G1 X45.379 Y137.548 E31.52693
G1 X44.613 Y137.006 E31.56126
G1 X44.219 Y136.522 E31.58409
G1 X43.844 Y135.894 E31.61085
G1 X43.58 Y135.07 E31.64251
G1 X43.573 Y131.757 E31.76372
G1 X43.734 Y129.809 E31.83523
G1 X44.218 Y128.003 E31.90364
M73 P1
G1 X45.047 Y126.229 E31.97528
G1 X46.1 Y124.735 E32.04215
G1 X47.485 Y123.332 E32.11428
G1 X49.283 Y122.125 E32.19351
G1 X50.846 Y121.412 E32.25636
G1 X52.603 Y120.936 E32.32296
G1 X54.573 Y120.772 E32.39528
G1 X54.573 Y104.625 E32.98604
G1 X49.573 Y104.625 E33.16897
G1 X48.427 Y104.206 E33.21361
G1 X47.79 Y103.742 E33.24245
G1 X47.344 Y103.304 E33.26532
G1 X46.906 Y102.554 E33.29709
G1 X46.643 Y101.734 E33.3286
G1 X46.636 Y98.312 E33.4538
G1 X47.05 Y97.177 E33.498
G1 X47.592 Y96.411 E33.53233
G1 X48.076 Y96.017 E33.55516
G1 X48.704 Y95.642 E33.58192
G0 F3000 X48.888 Y96.045
G1 F1200 X49.597 Y95.818 E33.60916
G1 X55.743 Y95.811 E33.83402
G1 X56.043 Y95.53 E33.84906
G1 X56.944 Y95.066 E33.88614
G1 X57.593 Y94.974 E33.91012
G1 X141.877 Y94.961 E36.99374
G1 X142.894 Y95.225 E37.03219
G1 X143.546 Y95.562 E37.05904
G1 X143.885 Y95.806 E37.07432
G1 X144.536 Y96.6 E37.11188
G1 X144.794 Y97.017 E37.12983
G1 X145.127 Y97.78 E37.16028
G1 X145.263 Y98.283 E37.17935
G1 X147.013 Y108.191 E37.54745
G1 X146.919 Y108.94 E37.57507
G1 X146.765 Y109.486 E37.59583
G1 X146.314 Y110.24 E37.62797
G1 X145.676 Y110.79 E37.65879
G1 X144.914 Y111.194 E37.69034
G1 X140.955 Y111.895 E37.83744
G1 X140.094 Y111.79 E37.86918
G1 X139.245 Y111.474 E37.90232
G1 X138.417 Y110.73 E37.94304
G1 X137.933 Y109.771 E37.98235
G1 X136.945 Y104.185 E38.18989
G1 X65.096 Y104.185 E40.81857
G1 X64.732 Y104.215 E40.83193
G1 X64.453 Y104.291 E40.84251
G1 X64.195 Y104.412 E40.85293
G1 X63.978 Y104.564 E40.86263
G1 X63.768 Y104.774 E40.87349
G1 X63.612 Y104.999 E40.88351
G1 X63.493 Y105.251 E40.89371
G1 X63.42 Y105.527 E40.90415
G1 X63.387 Y105.897 E40.91774
G1 X63.368 Y125.417 E41.6319
G1 X63.269 Y126.101 E41.65719
G1 X63.114 Y126.62 E41.67701
G1 X62.828 Y127.281 E41.70336
G1 X62.391 Y127.907 E41.73129
G1 X62.037 Y128.294 E41.75048
G1 X61.39 Y128.823 E41.78105
G1 X60.914 Y129.099 E41.80118
G1 X60.143 Y129.401 E41.83148
G1 X59.378 Y129.557 E41.86004
G1 X59.105 Y129.578 E41.87006
G1 X54.619 Y129.587 E42.03419
G1 X54.192 Y129.625 E42.04987
G1 X53.814 Y129.726 E42.06418
G1 X53.47 Y129.886 E42.07807
G1 X53.17 Y130.097 E42.09148
G1 X52.903 Y130.363 E42.10527
G1 X52.679 Y130.685 E42.11962
G1 X52.528 Y131.006 E42.1326
G1 X52.429 Y131.381 E42.14679
G1 X52.387 Y131.849 E42.16398
G1 X52.387 Y134.948 E42.27736
G1 X52.017 Y135.96 E42.31679
G1 X51.588 Y136.549 E42.34345
G1 X51.234 Y136.903 E42.36176
G1 X50.575 Y137.288 E42.38968
G1 X49.867 Y137.515 E42.41689
G1 X46.591 Y137.522 E42.53674
G1 X45.585 Y137.155 E42.57592
G1 X44.916 Y136.682 E42.6059
G1 X44.597 Y136.296 E42.62422
G1 X44.247 Y135.71 E42.64919
G1 X44.02 Y135.001 E42.67643
G1 X44.013 Y131.756 E42.79515
G1 X44.168 Y129.888 E42.86373
G1 X44.633 Y128.155 E42.92937
G1 X45.428 Y126.453 E42.9981
G1 X46.46 Y124.989 E43.06363
G1 X47.766 Y123.674 E43.13144
G1 X49.467 Y122.525 E43.20654
G1 X50.961 Y121.837 E43.26672
G1 X52.683 Y121.37 E43.332
G1 X54.548 Y121.212 E43.40047
G1 X55.013 Y121.211 E43.41749
G1 X55.013 Y104.185 E44.0404
G1 X49.65 Y104.185 E44.23661
G1 X48.638 Y103.815 E44.27603
G1 X48.049 Y103.386 E44.30269
G1 X47.695 Y103.032 E44.32101
G1 X47.31 Y102.373 E44.34893
G1 X47.083 Y101.665 E44.37614
G1 X47.076 Y98.389 E44.49599
G1 X47.443 Y97.383 E44.53517
G1 X47.916 Y96.714 E44.56515
G1 X48.302 Y96.395 E44.58347
G1 X48.888 Y96.045 E44.60844
G0 F3000 X49.07 Y96.449
G1 F1200 X49.666 Y96.258 E44.63134
G1 X55.859 Y96.251 E44.85792
G1 X55.953 Y96.218 E44.86156
G1 X56.3 Y95.892 E44.87898
G1 X57.077 Y95.492 E44.91095
G1 X57.655 Y95.41 E44.93231
G1 X141.821 Y95.401 E48.01162
G1 X142.735 Y95.638 E48.04617
G1 X143.344 Y95.953 E48.07125
G1 X143.583 Y96.131 E48.08215
G1 X144.164 Y96.835 E48.11555
G1 X144.392 Y97.195 E48.13114
G1 X144.702 Y97.895 E48.15915
G1 X144.838 Y98.398 E48.17821
G1 X146.568 Y108.199 E48.54234
G1 X146.482 Y108.885 E48.56763
G1 X146.358 Y109.308 E48.58376
G1 X145.971 Y109.955 E48.61134
G1 X145.428 Y110.423 E48.63757
G1 X144.768 Y110.773 E48.6649
G1 X140.944 Y111.45 E48.80698
G1 X140.2 Y111.359 E48.8344
G1 X139.475 Y111.09 E48.8627
G1 X138.773 Y110.459 E48.89723
G1 X138.355 Y109.63 E48.9312
G1 X137.327 Y103.82 E49.14706
G1 X137.286 Y103.745 E49.15019
G1 X65.072 Y103.745 E51.79222
G1 X64.66 Y103.779 E51.80735
G1 X64.297 Y103.878 E51.82111
G1 X63.974 Y104.029 E51.83416
G1 X63.692 Y104.226 E51.84674
G1 X63.432 Y104.487 E51.86022
G1 X63.228 Y104.78 E51.87329
G1 X63.079 Y105.096 E51.88607
G1 X62.985 Y105.452 E51.89954
G1 X62.947 Y105.88 E51.91526
G1 X62.932 Y125.357 E52.62785
G1 X62.847 Y125.975 E52.65067
G1 X62.692 Y126.494 E52.67049
G1 X62.442 Y127.065 E52.69329
G1 X62.066 Y127.61 E52.71752
G1 X61.712 Y127.997 E52.73671
G1 X61.169 Y128.442 E52.76239
G1 X60.693 Y128.718 E52.78252
G1 X60.053 Y128.97 E52.80769
G1 X59.344 Y129.118 E52.83419
G1 X59.071 Y129.139 E52.8442
G1 X54.602 Y129.147 E53.00771
G1 X54.114 Y129.19 E53.02563
G1 X53.662 Y129.311 E53.04275
G1 X53.25 Y129.503 E53.05938
G1 X52.884 Y129.76 E53.07574
G1 X52.565 Y130.078 E53.09222
G1 X52.298 Y130.461 E53.1093
G1 X52.113 Y130.855 E53.12523
G1 X51.994 Y131.304 E53.14222
G1 X51.947 Y131.833 E53.16165
G1 X51.947 Y134.871 E53.2728
G1 X51.626 Y135.749 E53.307
G1 X51.232 Y136.29 E53.33149
G1 X50.964 Y136.551 E53.34518
G1 X50.394 Y136.884 E53.36933
G1 X49.798 Y137.075 E53.39222
G1 X46.668 Y137.082 E53.50674
G1 X45.791 Y136.762 E53.5409
G1 X45.22 Y136.358 E53.56649
G1 X44.975 Y136.071 E53.58029
G1 X44.651 Y135.528 E53.60343
G1 X44.46 Y134.932 E53.62632
G1 X44.453 Y131.755 E53.74256
G1 X44.603 Y129.966 E53.80824
G1 X45.048 Y128.307 E53.87108
G1 X45.809 Y126.677 E53.9369
G1 X46.82 Y125.243 E54.00109
G1 X48.048 Y124.015 E54.06463
G1 X49.652 Y122.924 E54.1356
G1 X51.076 Y122.262 E54.19305
G1 X52.764 Y121.804 E54.25704
G1 X54.549 Y121.652 E54.32259
G1 X55.426 Y121.651 E54.35467
G1 X55.453 Y121.495 E54.36046
G1 X55.453 Y103.805 E55.00767
G1 X55.365 Y103.745 E55.01157
G1 X49.727 Y103.745 E55.21784
G1 X48.849 Y103.424 E55.25204
G1 X48.308 Y103.03 E55.27653
G1 X48.047 Y102.762 E55.29022
G1 X47.714 Y102.192 E55.31437
G1 X47.523 Y101.596 E55.33727
G1 X47.516 Y98.466 E55.45178
G1 X47.836 Y97.589 E55.48594
G1 X48.24 Y97.018 E55.51153
G1 X48.527 Y96.773 E55.52533
G1 X49.07 Y96.449 E55.54847
G0 F3000 X49.251 Y96.853
G1 F1200 X49.735 Y96.698 E55.56706
G1 X55.934 Y96.691 E55.79386
G1 X56.187 Y96.602 E55.80367
G1 X56.557 Y96.254 E55.82225
G1 X57.21 Y95.918 E55.84912
G1 X57.717 Y95.846 E55.86786
G1 X141.765 Y95.841 E58.94285
G1 X142.576 Y96.051 E58.9735
G1 X143.142 Y96.344 E58.99682
G1 X143.277 Y96.452 E59.00314
G1 X143.792 Y97.07 E59.03258
G1 X144.02 Y97.43 E59.04817
G1 X144.277 Y98.01 E59.07138
G1 X144.413 Y98.513 E59.09044
G1 X146.123 Y108.207 E59.45058
G1 X146.045 Y108.83 E59.47355
G1 X145.953 Y109.127 E59.48493
G1 X145.628 Y109.67 E59.50808
G1 X145.18 Y110.056 E59.52972
G1 X144.622 Y110.352 E59.55283
G1 X140.933 Y111.005 E59.68989
G1 X140.302 Y110.928 E59.71315
G1 X139.707 Y110.707 E59.73637
G1 X139.129 Y110.188 E59.76479
G1 X138.777 Y109.489 E59.79342
G1 X137.748 Y103.673 E60.00951
G1 X137.652 Y103.495 E60.01691
G1 X137.53 Y103.375 E60.02317
G1 X137.313 Y103.305 E60.03151
G1 X65.06 Y103.305 E62.67497
G1 X64.579 Y103.345 E62.69263
G1 X64.148 Y103.462 E62.70897
G1 X63.754 Y103.647 E62.7249
G1 X63.405 Y103.89 E62.74046
M73 P2
G1 X63.096 Y104.2 E62.75647
G1 X62.844 Y104.562 E62.77261
G1 X62.665 Y104.942 E62.78797
G1 X62.55 Y105.375 E62.80437
G1 X62.507 Y105.865 E62.82236
G1 X62.496 Y125.3 E63.53341
G1 X62.424 Y125.852 E63.55378
G1 X62.289 Y126.317 E63.5715
G1 X62.055 Y126.851 E63.59283
G1 X61.704 Y127.36 E63.61545
G1 X61.43 Y127.659 E63.63028
G1 X60.948 Y128.061 E63.65325
G1 X60.472 Y128.337 E63.67338
G1 X59.895 Y128.559 E63.696
G1 X59.31 Y128.679 E63.71785
G1 X59.037 Y128.7 E63.72786
G1 X54.585 Y128.707 E63.89074
G1 X54.035 Y128.756 E63.91095
G1 X53.512 Y128.896 E63.93075
G1 X53.028 Y129.121 E63.95028
G1 X52.598 Y129.423 E63.96951
G1 X52.229 Y129.791 E63.98857
G1 X51.916 Y130.241 E64.00863
G1 X51.698 Y130.704 E64.02735
G1 X51.559 Y131.228 E64.04719
G1 X51.507 Y131.817 E64.06882
G1 X51.507 Y134.794 E64.17774
G1 X51.234 Y135.541 E64.20683
G1 X50.925 Y135.975 E64.22632
G1 X50.696 Y136.198 E64.23802
G1 X50.213 Y136.48 E64.25848
G1 X49.729 Y136.635 E64.27708
