;FLAVOR:Marlin
M73 P0
M117 Time Left 0h09m39s
;TIME:579
;Filament used: 0.774146m
;Layer height: 0.3
;MINX:79.77
;MINY:87.824
;MINZ:0.2
;MAXX:140.274
;MAXY:132.176
;MAXZ:5.5
;TARGET_MACHINE.NAME:Creality Ender-3 Pro
;POSTPROCESSED
;Generated with Cura_SteamEngine 5.5.0
;
;

M140 S60
M105
M190 S60
M104 S200
M105
M109 S200
M82 ;absolute extrusion mode

G28 ;Home

G92 E0 ;Reset Extruder
M420 S1 Z10 ; Use saved Bed Mesh
G1 Z2.0 F3000 ;Move Z Axis up
G1 X10.1 Y20 Z0.28 F5000.0 ;Move to start position
G1 X10.1 Y200.0 Z0.28 F1500.0 E15 ;Draw the first line
G1 X10.4 Y200.0 Z0.28 F5000.0 ;Move to side a little
G1 X10.4 Y20 Z0.28 F1500.0 E30 ;Draw the second line
G92 E0 ;Reset Extruder
G1 Z2.0 F3000 ;Move Z Axis up
G92 E0
G92 E0
G1 F2400 E-0.8
;LAYER_COUNT:18
;LAYER:0
M117 Printing Layer 0 of 17 F45 Short Hook 1IN
M107
G1 F300 Z0.4
G0 F3000 X84.79 Y88.611 Z0.4
;TYPE:SKIRT
G1 F300 Z0.2
G1 F2400 E0
G1 F1200 X86.058 Y87.975 E0.0519
G1 X86.978 Y87.846 E0.08589
G1 X125.082 Y87.824 E1.47997
G1 X126.097 Y87.914 E1.51725
G1 X127.27 Y88.261 E1.562
G1 X127.804 Y88.507 E1.58351
G1 X138.604 Y94.737 E2.03967
G1 X139.604 Y95.942 E2.09696
G1 X140.074 Y97.059 E2.1413
G1 X140.274 Y98.117 E2.18069
G1 X140.118 Y99.346 E2.22602
G1 X139.901 Y100.188 E2.25783
G1 X138.555 Y102.522 E2.3564
G1 X137.81 Y103.361 E2.39745
G1 X136.662 Y104.086 E2.44713
G1 X135.499 Y104.416 E2.49136
G1 X134.763 Y104.506 E2.51849
G1 X133.398 Y104.299 E2.569
G1 X132.881 Y104.145 E2.58873
G1 X123.73 Y98.862 E2.97532
G1 X123.454 Y98.838 E2.98546
G1 X102.102 Y98.84 E3.76665
G1 X101.924 Y98.903 E3.77355
G1 X101.783 Y99.168 E3.78454
G1 X101.754 Y118.893 E4.5062
G1 X101.611 Y119.791 E4.53947
G1 X101.375 Y120.544 E4.56834
G1 X100.991 Y121.407 E4.6029
G1 X100.249 Y122.345 E4.64665
G1 X99.605 Y122.953 E4.67906
G1 X98.843 Y123.51 E4.71359
G1 X97.888 Y123.904 E4.75138
G1 X96.817 Y124.165 E4.79172
G1 X96.024 Y124.235 E4.82084
G1 X91.749 Y124.24 E4.97725
G1 X91.411 Y124.271 E4.98966
G1 X91.094 Y124.454 E5.00306
G1 X90.919 Y124.664 E5.01306
G1 X90.783 Y125.033 E5.02745
G1 X90.783 Y127.959 E5.1345
G1 X90.53 Y129.118 E5.1779
G1 X89.823 Y130.312 E5.22867
G1 X89.368 Y130.88 E5.25529
G1 X88.37 Y131.616 E5.30066
G1 X87.33 Y132.024 E5.34153
G1 X86.73 Y132.174 E5.36416
M73 P1
G1 X83.823 Y132.176 E5.47052
G1 X82.712 Y131.849 E5.51289
G1 X82.065 Y131.559 E5.53883
G1 X81.064 Y130.751 E5.58589
G1 X80.294 Y129.755 E5.63195
G1 X79.77 Y128.257 E5.69002
G1 X79.786 Y124.717 E5.81953
G1 X79.978 Y122.893 E5.88663
G1 X80.269 Y121.691 E5.93188
G1 X81.202 Y119.453 E6.02059
G1 X82.11 Y118.029 E6.08238
G1 X83.481 Y116.473 E6.15825
G1 X84.426 Y115.667 E6.20369
G1 X86.513 Y114.391 E6.29319
G1 X87.691 Y113.904 E6.33983
G1 X90.094 Y113.33 E6.43022
G1 X90.769 Y113.277 E6.45499
G1 X90.769 Y98.838 E6.98326
G1 X86.823 Y98.838 E7.12762
G1 X85.841 Y98.557 E7.16499
G1 X85.068 Y98.223 E7.1958
G1 X84.082 Y97.433 E7.24203
G1 X83.277 Y96.398 E7.29
G1 X82.77 Y94.933 E7.34672
G1 X82.769 Y91.773 E7.46233
G1 X83.179 Y90.468 E7.51237
G1 X83.334 Y90.179 E7.52437
G1 X84.007 Y89.356 E7.56327
G1 X84.79 Y88.611 E7.60281
G0 F3000 X85.047 Y88.974
G1 F1200 X86.189 Y88.401 E7.64956
G1 X87.039 Y88.282 E7.68096
G1 X125.082 Y88.264 E9.0728
G1 X126.015 Y88.348 E9.10708
G1 X127.086 Y88.661 E9.1479
G1 X127.62 Y88.907 E9.16941
G1 X138.315 Y95.078 E9.62116
G1 X139.225 Y96.175 E9.67331
G1 X139.651 Y97.186 E9.71345
G1 X139.829 Y98.129 E9.74856
G1 X139.692 Y99.236 E9.78937
G1 X139.49 Y100.02 E9.81899
G1 X138.196 Y102.264 E9.91376
G1 X137.523 Y103.022 E9.95085
G1 X136.481 Y103.68 E9.99593
G1 X135.445 Y103.979 E10.03538
G1 X134.768 Y104.062 E10.06034
G1 X133.524 Y103.877 E10.10635
G1 X133.054 Y103.737 E10.12429
G1 X124.105 Y98.571 E10.50234
G1 X123.798 Y98.427 E10.51475
G1 X123.47 Y98.398 E10.52679
G1 X102.027 Y98.4 E11.31131
G1 X101.665 Y98.529 E11.32537
M73 P2
G1 X101.461 Y98.769 E11.33689
G1 X101.343 Y99.089 E11.34937
G1 X101.314 Y118.892 E12.07389
G1 X101.191 Y119.661 E12.10238
G1 X100.973 Y120.365 E12.12934
G1 X100.612 Y121.177 E12.16186
G1 X99.946 Y122.026 E12.20133
G1 X99.345 Y122.598 E12.23169
G1 X98.627 Y123.123 E12.26423
G1 X97.72 Y123.497 E12.30013
G1 X96.778 Y123.727 E12.3356
G1 X96.023 Y123.795 E12.36334
G1 X91.731 Y123.8 E12.52036
G1 X91.274 Y123.842 E12.53716
G1 X90.806 Y124.112 E12.55692
G1 X90.532 Y124.44 E12.57256
G1 X90.37 Y124.881 E12.58975
G1 X90.343 Y125.201 E12.6015
G1 X90.343 Y127.911 E12.70065
G1 X90.115 Y128.956 E12.73978
G1 X89.479 Y130.037 E12.78566
G1 X89.059 Y130.562 E12.81026
G1 X88.158 Y131.226 E12.85121
G1 X87.169 Y131.614 E12.89008
G1 X86.678 Y131.734 E12.90857
G1 X83.885 Y131.736 E13.01076
G1 X82.892 Y131.447 E13.04859
G1 X82.294 Y131.179 E13.07257
G1 X81.381 Y130.442 E13.1155
G1 X80.685 Y129.542 E13.15712
G1 X80.21 Y128.184 E13.20976
G1 X80.224 Y124.762 E13.33496
G1 X80.406 Y122.997 E13.39987
G1 X80.697 Y121.795 E13.44512
G1 X81.574 Y119.688 E13.52862
G1 X82.441 Y118.319 E13.58791
G1 X83.767 Y116.808 E13.66146
G1 X84.712 Y116.002 E13.7069
G1 X86.681 Y114.798 E13.79133
G1 X87.859 Y114.311 E13.83797
G1 X90.128 Y113.769 E13.92332
G1 X91.209 Y113.684 E13.96299
G1 X91.209 Y98.398 E14.52225
G1 X86.886 Y98.398 E14.68041
G1 X86.016 Y98.153 E14.71348
G1 X85.295 Y97.841 E14.74222
G1 X84.397 Y97.122 E14.78431
G1 X83.67 Y96.187 E14.82764
G1 X83.21 Y94.858 E14.87909
G1 X83.209 Y91.841 E14.98947
G1 X83.599 Y90.6 E15.03707
G1 X83.676 Y90.456 E15.04304
G1 X84.31 Y89.675 E15.07984
G1 X85.047 Y88.974 E15.11706
M73 P3
G0 F3000 X85.304 Y89.337
G1 F1200 X86.32 Y88.827 E15.15865
G1 X87.1 Y88.718 E15.18746
G1 X125.082 Y88.704 E16.57708
G1 X125.931 Y88.782 E16.60827
G1 X126.902 Y89.061 E16.64523
G1 X127.436 Y89.307 E16.66674
G1 X138.026 Y95.419 E17.11409
G1 X138.844 Y96.405 E17.16096
G1 X139.228 Y97.317 E17.19717
G1 X139.384 Y98.142 E17.22789
G1 X139.266 Y99.126 E17.26414
G1 X139.079 Y99.852 E17.29157
G1 X137.837 Y102.006 E17.38254
G1 X137.236 Y102.683 E17.41566
G1 X136.298 Y103.275 E17.45624
G1 X135.392 Y103.542 E17.4908
G1 X134.771 Y103.618 E17.51369
G1 X133.65 Y103.455 E17.55513
G1 X133.227 Y103.329 E17.57128
G1 X124.311 Y98.182 E17.94793
G1 X123.914 Y97.996 E17.96397
G1 X123.487 Y97.958 E17.97966
G1 X102.173 Y97.96 E18.75946
G1 X101.873 Y97.988 E18.77048
G1 X101.509 Y98.118 E18.78462
G1 X101.329 Y98.244 E18.79266
G1 X101.075 Y98.545 E18.80707
G1 X100.928 Y98.943 E18.82259
G1 X100.903 Y99.241 E18.83353
G1 X100.879 Y118.825 E19.55004
G1 X100.77 Y119.533 E19.57624
G1 X100.571 Y120.186 E19.60122
G1 X100.231 Y120.95 E19.63181
G1 X99.641 Y121.709 E19.66699
G1 X99.085 Y122.243 E19.69519
G1 X98.411 Y122.736 E19.72574
G1 X97.552 Y123.09 E19.75973
G1 X96.738 Y123.289 E19.79039
G1 X96.022 Y123.355 E19.8167
G1 X91.713 Y123.36 E19.97435
G1 X91.337 Y123.394 E19.98816
G1 X91.046 Y123.471 E19.99917
G1 X90.772 Y123.6 E20.01025
G1 X90.522 Y123.774 E20.0214
G1 X90.316 Y123.98 E20.03206
G1 X90.149 Y124.219 E20.04272
G1 X90.018 Y124.5 E20.05407
G1 X89.935 Y124.804 E20.0656
G1 X89.903 Y125.189 E20.07973
G1 X89.903 Y127.863 E20.17756
G1 X89.7 Y128.794 E20.21242
G1 X89.135 Y129.762 E20.25343
M73 P4
G1 X88.75 Y130.244 E20.276
G1 X87.946 Y130.836 E20.31253
G1 X87.008 Y131.204 E20.34939
G1 X86.626 Y131.294 E20.36375
G1 X83.947 Y131.296 E20.46177
G1 X83.072 Y131.045 E20.49507
G1 X82.523 Y130.799 E20.51708
G1 X81.698 Y130.133 E20.55587
G1 X81.076 Y129.329 E20.59306
G1 X80.65 Y128.111 E20.64027
G1 X80.662 Y124.806 E20.76119
G1 X80.834 Y123.101 E20.82388
G1 X81.125 Y121.899 E20.86913
G1 X81.947 Y119.922 E20.94747
G1 X82.772 Y118.609 E21.0042
G1 X84.053 Y117.143 E21.07543
G1 X84.998 Y116.337 E21.12087
G1 X86.849 Y115.205 E21.20025
G1 X88.027 Y114.718 E21.24688
G1 X90.163 Y114.208 E21.32723
G1 X91.382 Y114.112 E21.37197
G1 X91.649 Y114.11 E21.38173
G1 X91.649 Y97.958 E21.97267
G1 X86.948 Y97.958 E22.14467
G1 X86.135 Y97.729 E22.17557
G1 X85.523 Y97.461 E22.20001
G1 X84.712 Y96.811 E22.23804
G1 X84.063 Y95.976 E22.27673
G1 X83.65 Y94.783 E22.32292
G1 X83.649 Y91.909 E22.42807
G1 X84.019 Y90.732 E22.4732
G1 X84.613 Y89.994 E22.50786
G1 X85.304 Y89.337 E22.54275
G0 F3000 X84.956 Y90.27
G1 F1200 X85.561 Y89.7 E22.57316
G1 X86.451 Y89.253 E22.6096
G1 X87.161 Y89.154 E22.63583
G1 X125.082 Y89.144 E24.02321
G1 X125.851 Y89.216 E24.05147
G1 X126.718 Y89.461 E24.08443
G1 X127.252 Y89.707 E24.10594
G1 X137.737 Y95.76 E24.54888
G1 X138.463 Y96.635 E24.59048
G1 X138.805 Y97.448 E24.62275
G1 X138.939 Y98.157 E24.64915
G1 X138.84 Y99.016 E24.68078
G1 X138.668 Y99.684 E24.70602
G1 X137.478 Y101.748 E24.79318
G1 X136.949 Y102.344 E24.82234
G1 X136.114 Y102.871 E24.85846
G1 X135.338 Y103.105 E24.88812
G1 X134.776 Y103.174 E24.90883
G1 X133.776 Y103.033 E24.94578
G1 X133.4 Y102.921 E24.96013
M73 P5
G1 X124.512 Y97.79 E25.33561
G1 X124.157 Y97.624 E25.34995
G1 X123.884 Y97.552 E25.36028
G1 X123.504 Y97.518 E25.37423
G1 X102.153 Y97.52 E26.15539
G1 X101.798 Y97.553 E26.16843
G1 X101.525 Y97.625 E26.17876
G1 X101.286 Y97.737 E26.18842
G1 X101.048 Y97.903 E26.19903
G1 X100.845 Y98.105 E26.20951
G1 X100.692 Y98.324 E26.21928
G1 X100.568 Y98.589 E26.22999
G1 X100.494 Y98.864 E26.24041
G1 X100.463 Y99.227 E26.25374
G1 X100.444 Y118.76 E26.96837
G1 X100.348 Y119.407 E26.9923
G1 X100.169 Y120.007 E27.01521
G1 X99.851 Y120.722 E27.04384
G1 X99.335 Y121.393 E27.07481
G1 X98.825 Y121.888 E27.10081
G1 X98.195 Y122.349 E27.12937
G1 X97.384 Y122.683 E27.16146
G1 X96.696 Y122.851 E27.18737
G1 X96.021 Y122.915 E27.21218
G1 X91.696 Y122.92 E27.37042
G1 X91.262 Y122.959 E27.38636
G1 X90.891 Y123.057 E27.4004
G1 X90.549 Y123.219 E27.41424
G1 X90.242 Y123.432 E27.42791
G1 X89.978 Y123.696 E27.44157
G1 X89.767 Y123.999 E27.45508
G1 X89.602 Y124.351 E27.4693
G1 X89.501 Y124.723 E27.48341
G1 X89.463 Y125.176 E27.50004
G1 X89.463 Y127.815 E27.59659
G1 X89.285 Y128.633 E27.62722
G1 X88.791 Y129.488 E27.66334
G1 X88.443 Y129.924 E27.68375
G1 X87.734 Y130.446 E27.71597
G1 X86.847 Y130.794 E27.75083
G1 X86.574 Y130.854 E27.76105
G1 X84.01 Y130.856 E27.85486
G1 X83.252 Y130.643 E27.88367
G1 X82.752 Y130.419 E27.90371
G1 X82.015 Y129.824 E27.93836
G1 X81.467 Y129.116 E27.97112
G1 X81.09 Y128.038 E28.0129
G1 X81.1 Y124.849 E28.12958
G1 X81.262 Y123.205 E28.19002
G1 X81.553 Y122.003 E28.23526
G1 X82.32 Y120.155 E28.30847
G1 X83.104 Y118.898 E28.36267
G1 X84.339 Y117.478 E28.43152
G1 X85.284 Y116.672 E28.47696
M73 P6
G1 X87.017 Y115.612 E28.55128
G1 X88.195 Y115.125 E28.59792
G1 X90.198 Y114.647 E28.67326
G1 X91.417 Y114.551 E28.718
G1 X92.089 Y114.548 E28.74258
G1 X92.089 Y97.518 E29.36564
G1 X87.01 Y97.518 E29.55147
G1 X86.254 Y97.305 E29.5802
G1 X85.751 Y97.081 E29.60035
G1 X85.028 Y96.501 E29.63426
G1 X84.456 Y95.765 E29.66836
G1 X84.09 Y94.708 E29.70929
G1 X84.089 Y91.977 E29.8092
G1 X84.414 Y90.943 E29.84886
G1 X84.956 Y90.27 E29.88047
G0 F3000 X85.299 Y90.546
G1 F1200 X85.817 Y90.063 E29.90638
G1 X86.582 Y89.679 E29.9377
G1 X87.222 Y89.59 E29.96134
G1 X125.082 Y89.584 E31.34649
G1 X125.771 Y89.651 E31.37182
G1 X126.534 Y89.861 E31.40077
G1 X127.068 Y90.107 E31.42228
G1 X137.448 Y96.101 E31.86082
G1 X138.084 Y96.868 E31.89727
G1 X138.382 Y97.575 E31.92534
G1 X138.495 Y98.173 E31.94761
G1 X138.414 Y98.906 E31.97459
G1 X138.257 Y99.516 E31.99763
G1 X137.119 Y101.49 E32.081
G1 X136.662 Y102.005 E32.10619
G1 X135.929 Y102.468 E32.13791
G1 X135.284 Y102.668 E32.16261
G1 X134.779 Y102.73 E32.18123
G1 X133.902 Y102.611 E32.21361
G1 X133.573 Y102.513 E32.22617
G1 X124.713 Y97.398 E32.60046
G1 X124.311 Y97.21 E32.6167
G1 X123.959 Y97.117 E32.63002
G1 X123.52 Y97.078 E32.64614
G1 X102.135 Y97.08 E33.42854
G1 X101.723 Y97.118 E33.44367
G1 X101.371 Y97.211 E33.45699
G1 X101.065 Y97.354 E33.46935
G1 X100.763 Y97.565 E33.48283
G1 X100.507 Y97.82 E33.49605
G1 X100.308 Y98.105 E33.50877
G1 X100.154 Y98.434 E33.52206
G1 X100.06 Y98.785 E33.53535
G1 X100.023 Y99.212 E33.55103
G1 X100.008 Y118.699 E34.26399
G1 X99.926 Y119.281 E34.28549
G1 X99.747 Y119.881 E34.3084
G1 X99.471 Y120.495 E34.33303
M73 P7
G1 X99.029 Y121.077 E34.35977
G1 X98.519 Y121.572 E34.38577
G1 X97.98 Y121.962 E34.41011
G1 X97.276 Y122.256 E34.43802
G1 X96.653 Y122.413 E34.46153
G1 X96.02 Y122.475 E34.4848
G1 X91.678 Y122.48 E34.64365
G1 X91.182 Y122.525 E34.66188
G1 X90.741 Y122.641 E34.67856
G1 X90.331 Y122.835 E34.69515
G1 X89.958 Y123.094 E34.71177
G1 X89.64 Y123.412 E34.72822
G1 X89.385 Y123.779 E34.74457
G1 X89.186 Y124.202 E34.76167
G1 X89.067 Y124.643 E34.77839
G1 X89.023 Y125.163 E34.79748
G1 X89.023 Y127.768 E34.89279
G1 X88.87 Y128.472 E34.91914
G1 X88.41 Y129.268 E34.95278
G1 X88.135 Y129.605 E34.96869
G1 X87.522 Y130.056 E34.99654
G1 X86.686 Y130.384 E35.02939
G1 X86.525 Y130.414 E35.03538
G1 X84.072 Y130.416 E35.12513
G1 X83.371 Y130.219 E35.15177
G1 X82.981 Y130.039 E35.16748
G1 X82.332 Y129.515 E35.198
G1 X81.858 Y128.903 E35.22632
G1 X81.53 Y127.965 E35.26268
G1 X81.538 Y124.891 E35.37515
G1 X81.69 Y123.309 E35.43329
G1 X81.981 Y122.107 E35.47854
G1 X82.726 Y120.325 E35.5492
G1 X83.437 Y119.186 E35.59833
G1 X84.625 Y117.813 E35.66475
G1 X85.57 Y117.007 E35.71019
G1 X87.185 Y116.019 E35.77946
G1 X88.363 Y115.532 E35.8261
G1 X90.233 Y115.086 E35.89643
G1 X91.452 Y114.99 E35.94117
G1 X92.529 Y114.986 E35.98057
G1 X92.529 Y97.078 E36.63576
G1 X87.072 Y97.078 E36.83541
G1 X86.373 Y96.881 E36.86198
G1 X85.983 Y96.703 E36.87766
G1 X85.342 Y96.188 E36.90775
G1 X84.849 Y95.554 E36.93713
G1 X84.53 Y94.633 E36.97279
G1 X84.529 Y92.045 E37.06747
G1 X84.809 Y91.154 E37.10164
G1 X85.299 Y90.546 E37.13021
G0 F3000 X85.599 Y90.868
G1 F1200 X86.071 Y90.428 E37.15382
M73 P8
G1 X86.714 Y90.105 E37.18015
G1 X87.283 Y90.026 E37.20116
G1 X125.082 Y90.024 E38.58408
G1 X125.727 Y90.089 E38.6078
G1 X126.35 Y90.261 E38.63145
G1 X126.884 Y90.507 E38.65296
G1 X137.159 Y96.442 E39.08709
G1 X137.705 Y97.101 E39.1184
G1 X137.959 Y97.703 E39.1423
G1 X138.05 Y98.187 E39.16032
G1 X137.988 Y98.796 E39.18272
G1 X137.846 Y99.348 E39.20357
G1 X136.76 Y101.232 E39.28313
G1 X136.375 Y101.666 E39.30435
G1 X135.743 Y102.065 E39.3317
G1 X135.193 Y102.236 E39.35277
G1 X134.779 Y102.286 E39.36803
G1 X134.028 Y102.189 E39.39573
G1 X133.746 Y102.105 E39.4065
G1 X124.919 Y97.009 E39.7794
G1 X124.462 Y96.795 E39.79786
G1 X124.035 Y96.682 E39.81402
G1 X123.536 Y96.638 E39.83235
G1 X102.117 Y96.64 E40.61599
G1 X101.647 Y96.683 E40.63325
G1 X101.22 Y96.796 E40.64942
G1 X100.842 Y96.973 E40.66469
G1 X100.478 Y97.227 E40.68092
G1 X100.171 Y97.533 E40.69678
G1 X99.926 Y97.885 E40.71247
G1 X99.739 Y98.284 E40.7286
G1 X99.626 Y98.706 E40.74458
G1 X99.583 Y99.197 E40.76261
G1 X99.572 Y118.642 E41.47403
G1 X99.504 Y119.158 E41.49307
G1 X99.346 Y119.7 E41.51373
G1 X99.09 Y120.269 E41.53655
G1 X98.72 Y120.763 E41.55913
G1 X98.261 Y121.215 E41.5827
G1 X97.763 Y121.575 E41.60518
G1 X97.165 Y121.83 E41.62897
G1 X96.61 Y121.975 E41.64996
G1 X95.977 Y122.037 E41.67323
G1 X91.661 Y122.04 E41.83113
G1 X91.105 Y122.09 E41.85156
G1 X90.587 Y122.227 E41.87116
G1 X90.113 Y122.451 E41.89034
G1 X89.674 Y122.756 E41.9099
G1 X89.302 Y123.128 E41.92914
G1 X88.999 Y123.563 E41.94854
G1 X88.772 Y124.048 E41.96813
G1 X88.633 Y124.562 E41.98761
G1 X88.583 Y125.15 E42.0092
G1 X88.583 Y127.721 E42.10327
M73 P9
G1 X88.455 Y128.311 E42.12535
G1 X88.069 Y128.99 E42.15393
G1 X87.829 Y129.284 E42.16781
G1 X87.31 Y129.666 E42.19139
G1 X86.525 Y129.974 E42.22224
G1 X84.133 Y129.976 E42.30976
G1 X83.555 Y129.819 E42.33167
G1 X83.214 Y129.662 E42.34541
G1 X82.648 Y129.204 E42.37204
G1 X82.25 Y128.69 E42.39583
G1 X81.97 Y127.891 E42.4268
G1 X81.976 Y124.932 E42.53506
G1 X82.118 Y123.413 E42.59088
G1 X82.409 Y122.211 E42.63612
G1 X83.1 Y120.557 E42.70171
G1 X83.771 Y119.473 E42.74835
G1 X84.911 Y118.148 E42.8123
G1 X85.856 Y117.342 E42.85774
G1 X87.353 Y116.426 E42.92195
G1 X88.531 Y115.939 E42.96859
G1 X90.268 Y115.525 E43.03392
G1 X91.487 Y115.429 E43.07865
G1 X92.775 Y115.425 E43.12578
G1 X92.901 Y115.353 E43.13109
G1 X92.969 Y115.107 E43.14042
G1 X92.969 Y96.865 E43.80783
G1 X92.925 Y96.748 E43.8124
G1 X92.834 Y96.67 E43.81679
G1 X92.635 Y96.638 E43.82416
G1 X87.131 Y96.638 E44.02553
G1 X86.556 Y96.481 E44.04734
G1 X86.217 Y96.326 E44.06097
G1 X85.656 Y95.875 E44.08731
G1 X85.242 Y95.343 E44.11197
