;FLAVOR:Marlin
M73 P0
M117 Time Left 0h24m39s
;TIME:1479
;Filament used: 2.12764m
;Layer height: 0.3
;MINX:67.201
;MINY:77.679
;MINZ:0.2
;MAXX:170.015
;MAXY:139.705
;MAXZ:5.5
;TARGET_MACHINE.NAME:Creality Ender-3 Pro
;POSTPROCESSED
;Generated with Cura_SteamEngine 5.5.0
;
;

M140 S70
M105
M190 S70
M104 S235
M105
M109 S235
M82 ;absolute extrusion mode

G28 ;Home

G92 E0 ;Reset Extruder
M420 S1 Z10 ; Use saved Bed Mesh
G1 Z2.0 F3000 ;Move Z Axis up
G1 X10.1 Y20 Z0.28 F5000.0 ;Move to start position
G1 X10.1 Y200.0 Z0.28 F1500.0 E15 ;Draw the first line
G1 X10.4 Y200.0 Z0.28 F5000.0 ;Move to side a little
G1 X10.4 Y20 Z0.28 F1500.0 E30 ;Draw the second line
G92 E0 ;Reset Extruder
G1 Z2.0 F3000 ;Move Z Axis up
G92 E0
G92 E0
G1 F2400 E-0.8
;LAYER_COUNT:18
;LAYER:0
M117 Printing Layer 0 of 17 F45 Long hook 2in
M107
G1 F300 Z0.4
G0 F3000 X72.13 Y96.123 Z0.4
;TYPE:SKIRT
G1 F300 Z0.2
G1 F2400 E0
G1 F3000 X72.842 Y95.698 E0.03034
G1 X73.896 Y95.36 E0.07083
G1 X79.761 Y95.353 E0.28541
G1 X79.946 Y95.219 E0.29377
G1 X81.051 Y94.65 E0.33924
G1 X81.913 Y94.528 E0.37109
G1 X141.155 Y94.503 E2.53853
G1 X142.486 Y94.847 E2.58883
G1 X143.445 Y95.369 E2.62877
G1 X143.925 Y95.722 E2.65057
G1 X144.694 Y96.662 E2.69501
G1 X145.103 Y97.329 E2.72363
G1 X145.51 Y98.292 E2.76188
G1 X145.636 Y98.755 E2.77944
G1 X147.436 Y108.907 E3.15665
G1 X147.37 Y110.035 E3.19799
G1 X147.006 Y111.016 E3.23627
G1 X147.732 Y111.016 E3.26283
G1 X147.898 Y110.919 E3.26987
G1 X148.001 Y110.745 E3.27727
G1 X148.033 Y90.928 E4.0023
G1 X148.175 Y90.064 E4.03433
G1 X148.463 Y89.175 E4.06852
G1 X148.828 Y88.393 E4.10009
G1 X149.683 Y87.344 E4.1496
G1 X150.387 Y86.745 E4.18342
G1 X151.129 Y86.279 E4.21548
G1 X151.908 Y85.907 E4.24706
G1 X153.175 Y85.655 E4.29433
G1 X153.555 Y85.624 E4.30827
G1 X158.213 Y85.614 E4.47869
G1 X158.569 Y85.485 E4.49255
G1 X158.784 Y85.306 E4.50278
G1 X158.967 Y84.997 E4.51592
G1 X159.001 Y84.618 E4.52984
G1 X159.001 Y81.342 E4.6497
G1 X159.518 Y79.928 E4.70478
G1 X160.052 Y79.195 E4.73796
G1 X160.655 Y78.568 E4.76979
G1 X161.59 Y78.021 E4.80942
G1 X162.634 Y77.686 E4.84953
G1 X166.348 Y77.679 E4.98542
G1 X167.741 Y78.187 E5.03966
G1 X168.707 Y78.87 E5.08295
G1 X169.245 Y79.547 E5.11458
G1 X169.67 Y80.259 E5.14492
G1 X170.008 Y81.313 E5.18542
G1 X170.015 Y84.762 E5.3116
G1 X169.827 Y86.93 E5.39122
G1 X169.176 Y89.138 E5.47544
G1 X168.575 Y90.422 E5.52731
G1 X167.264 Y92.39 E5.61382
G1 X165.781 Y93.873 E5.69055
G1 X163.856 Y95.161 E5.77529
G1 X162.127 Y95.95 E5.84483
G1 X160.409 Y96.406 E5.90986
G1 X159.015 Y96.551 E5.96113
G1 X159.015 Y111.016 E6.49035
G1 X163.289 Y111.016 E6.64672
G1 X164.703 Y111.533 E6.7018
G1 X165.436 Y112.067 E6.73498
G1 X166.063 Y112.67 E6.76681
G1 X166.61 Y113.605 E6.80644
G1 X166.945 Y114.649 E6.84656
G1 X166.952 Y118.363 E6.98244
G1 X166.444 Y119.756 E7.03668
G1 X165.761 Y120.722 E7.07997
G1 X165.084 Y121.26 E7.11161
G1 X164.372 Y121.685 E7.14194
G1 X163.318 Y122.023 E7.18244
G1 X157.453 Y122.03 E7.39702
G1 X157.268 Y122.164 E7.40537
G1 X156.163 Y122.733 E7.45085
G1 X155.301 Y122.855 E7.4827
G1 X96.064 Y122.88 E9.64995
G1 X94.76 Y122.542 E9.69924
G1 X93.716 Y122.006 E9.74217
G1 X93.188 Y121.528 E9.76823
G1 X92.464 Y120.643 E9.81006
G1 X92.22 Y120.258 E9.82674
G1 X91.674 Y118.99 E9.87725
G1 X91.571 Y118.594 E9.89222
G1 X89.778 Y108.477 E10.26813
G1 X89.844 Y107.354 E10.30929
G1 X90.197 Y106.367 E10.34764
G1 X89.543 Y106.367 E10.37157
G1 X89.348 Y106.436 E10.37913
G1 X89.213 Y106.697 E10.38988
G1 X89.182 Y126.477 E11.11356
G1 X89.075 Y127.17 E11.13921
G1 X88.814 Y128.106 E11.17476
G1 X88.321 Y129.034 E11.21321
G1 X87.808 Y129.729 E11.24481
G1 X87.039 Y130.481 E11.28417
G1 X86.528 Y130.847 E11.30716
G1 X85.441 Y131.424 E11.35219
G1 X84.317 Y131.684 E11.39439
G1 X83.454 Y131.764 E11.4261
G1 X79.165 Y131.769 E11.58302
G1 X78.853 Y131.797 E11.59448
G1 X78.524 Y131.985 E11.60835
G1 X78.349 Y132.196 E11.61838
G1 X78.213 Y132.563 E11.63269
G1 X78.213 Y136.042 E11.75998
G1 X77.696 Y137.456 E11.81506
G1 X77.162 Y138.189 E11.84824
G1 X76.559 Y138.816 E11.88007
G1 X75.624 Y139.363 E11.9197
G1 X74.58 Y139.698 E11.95981
G1 X70.866 Y139.705 E12.09569
G1 X69.473 Y139.197 E12.14994
G1 X68.507 Y138.514 E12.19323
G1 X67.969 Y137.837 E12.22486
G1 X67.544 Y137.125 E12.2552
G1 X67.206 Y136.071 E12.2957
G1 X67.201 Y132.547 E12.42463
G1 X67.368 Y130.526 E12.49882
G1 X67.894 Y128.561 E12.57324
G1 X68.788 Y126.647 E12.65053
G1 X69.934 Y125.033 E12.72295
G1 X71.401 Y123.538 E12.79958
G1 X73.393 Y122.206 E12.88725
G1 X75.086 Y121.434 E12.95533
G1 X76.948 Y120.93 E13.0259
G1 X78.199 Y120.826 E13.07183
G1 X78.199 Y106.367 E13.60083
G1 X73.925 Y106.367 E13.7572
G1 X72.511 Y105.85 E13.81228
G1 X71.778 Y105.316 E13.84546
G1 X71.151 Y104.713 E13.87729
G1 X70.604 Y103.778 E13.91692
G1 X70.269 Y102.734 E13.95703
G1 X70.262 Y99.02 E14.09292
G1 X70.77 Y97.627 E14.14716
G1 X71.453 Y96.661 E14.19045
G1 X72.13 Y96.123 E14.22208
G0 X72.356 Y96.501
G1 X73.026 Y96.101 E14.25063
G1 X73.965 Y95.8 E14.28671
G1 X79.913 Y95.793 E14.50432
G1 X80.147 Y95.61 E14.51519
G1 X81.184 Y95.076 E14.55787
G1 X81.975 Y94.964 E14.5871
G1 X141.099 Y94.943 E16.75022
G1 X142.324 Y95.26 E16.79651
G1 X143.185 Y95.724 E16.83229
G1 X143.618 Y96.042 E16.85195
G1 X144.353 Y96.941 E16.89443
G1 X144.698 Y97.502 E16.91853
G1 X145.085 Y98.408 E16.95457
G1 X145.211 Y98.871 E16.97213
G1 X146.994 Y108.933 E17.34599
G1 X146.935 Y109.945 E17.38308
G1 X146.588 Y110.879 E17.41953
G1 X146.268 Y111.456 E17.44367
G1 X147.574 Y111.456 E17.49146
G1 X147.901 Y111.427 E17.50347
G1 X148.22 Y111.241 E17.51698
G1 X148.413 Y110.912 E17.53093
G1 X148.441 Y110.593 E17.54265
G1 X148.468 Y90.997 E18.25959
G1 X148.594 Y90.2 E18.28911
G1 X148.882 Y89.311 E18.3233
G1 X149.204 Y88.628 E18.35093
G1 X149.997 Y87.655 E18.39685
G1 X150.621 Y87.118 E18.42697
G1 X151.363 Y86.652 E18.45903
G1 X152.05 Y86.327 E18.48683
G1 X153.211 Y86.094 E18.53016
G1 X153.591 Y86.063 E18.5441
G1 X158.076 Y86.054 E18.70819
G1 X158.357 Y86.03 E18.71851
G1 X158.789 Y85.873 E18.73533
G1 X159.125 Y85.595 E18.75128
G1 X159.396 Y85.136 E18.77079
G1 X159.441 Y84.635 E18.78919
G1 X159.441 Y81.419 E18.90685
G1 X159.909 Y80.139 E18.95671
G1 X160.408 Y79.454 E18.98772
G1 X160.929 Y78.917 E19.01509
G1 X161.771 Y78.425 E19.05077
G1 X162.703 Y78.126 E19.08658
G1 X166.271 Y78.119 E19.21712
G1 X167.535 Y78.58 E19.26635
G1 X168.4 Y79.192 E19.30511
G1 X168.867 Y79.773 E19.33238
G1 X169.267 Y80.443 E19.36093
G1 X169.568 Y81.382 E19.39701
G1 X169.575 Y84.763 E19.52071
G1 X169.393 Y86.847 E19.59724
G1 X168.777 Y88.951 E19.67745
G1 X168.176 Y90.235 E19.72932
G1 X166.92 Y92.112 E19.81195
G1 X165.503 Y93.529 E19.88526
G1 X163.611 Y94.795 E19.96855
G1 X162.013 Y95.525 E20.03283
G1 X160.363 Y95.968 E20.09533
G1 X158.575 Y96.154 E20.1611
G1 X158.575 Y111.456 E20.72094
G1 X163.212 Y111.456 E20.89059
G1 X164.492 Y111.924 E20.94046
G1 X165.177 Y112.423 E20.97146
G1 X165.714 Y112.944 E20.99884
G1 X166.206 Y113.786 E21.03452
G1 X166.505 Y114.718 E21.07033
G1 X166.512 Y118.286 E21.20087
G1 X166.051 Y119.55 E21.25009
G1 X165.439 Y120.415 E21.28886
G1 X164.858 Y120.882 E21.31613
G1 X164.188 Y121.282 E21.34468
G1 X163.249 Y121.583 E21.38075
G1 X157.301 Y121.59 E21.59837
G1 X157.067 Y121.773 E21.60924
G1 X156.03 Y122.307 E21.65191
G1 X155.239 Y122.419 E21.68114
G1 X96.12 Y122.44 E23.84408
G1 X94.916 Y122.128 E23.88958
G1 X93.969 Y121.642 E23.92852
G1 X93.528 Y121.248 E23.95016
G1 X92.836 Y120.407 E23.99001
G1 X92.592 Y120.022 E24.00668
G1 X92.1 Y118.879 E24.05221
G1 X91.997 Y118.483 E24.06718
G1 X90.22 Y108.451 E24.43993
G1 X90.279 Y107.442 E24.4769
G1 X90.625 Y106.476 E24.51445
G1 X90.951 Y105.927 E24.53781
G1 X89.467 Y105.927 E24.5921
G1 X89.086 Y106.062 E24.60689
G1 X88.888 Y106.301 E24.61824
G1 X88.773 Y106.62 E24.63065
G1 X88.747 Y126.412 E25.35476
G1 X88.651 Y127.052 E25.37844
G1 X88.402 Y127.944 E25.41232
G1 X87.965 Y128.775 E25.44667
G1 X87.499 Y129.416 E25.47567
G1 X86.781 Y130.125 E25.51259
G1 X86.322 Y130.458 E25.53333
M73 P1
G1 X85.284 Y131.009 E25.57633
G1 X84.275 Y131.246 E25.61425
G1 X83.453 Y131.324 E25.64446
G1 X79.148 Y131.329 E25.80196
G1 X78.718 Y131.367 E25.81775
G1 X78.235 Y131.643 E25.83811
G1 X77.962 Y131.972 E25.85375
G1 X77.801 Y132.408 E25.87075
G1 X77.773 Y132.732 E25.88265
G1 X77.773 Y135.965 E26.00093
G1 X77.305 Y137.245 E26.05079
G1 X76.806 Y137.93 E26.0818
G1 X76.285 Y138.467 E26.10917
G1 X75.443 Y138.959 E26.14485
G1 X74.511 Y139.258 E26.18066
G1 X70.943 Y139.265 E26.3112
G1 X69.679 Y138.804 E26.36043
G1 X68.814 Y138.192 E26.3992
G1 X68.347 Y137.611 E26.42647
G1 X67.947 Y136.941 E26.45502
G1 X67.646 Y136.002 E26.49109
G1 X67.64 Y132.583 E26.61618
G1 X67.804 Y130.599 E26.68902
G1 X68.309 Y128.713 E26.76045
G1 X69.17 Y126.87 E26.83487
G1 X70.293 Y125.288 E26.90585
G1 X71.681 Y123.881 E26.97816
G1 X73.638 Y122.572 E27.0643
G1 X75.201 Y121.859 E27.12715
G1 X77.029 Y121.364 E27.19644
G1 X78.639 Y121.23 E27.25555
G1 X78.639 Y105.927 E27.81543
G1 X74.002 Y105.927 E27.98508
G1 X72.722 Y105.459 E28.03494
G1 X72.037 Y104.96 E28.06594
G1 X71.5 Y104.439 E28.09332
G1 X71.008 Y103.597 E28.129
G1 X70.709 Y102.665 E28.16481
G1 X70.702 Y99.097 E28.29535
G1 X71.163 Y97.833 E28.34457
G1 X71.775 Y96.968 E28.38334
G1 X72.356 Y96.501 E28.41061
G0 X72.582 Y96.879
G1 X73.21 Y96.504 E28.43737
G1 X74.034 Y96.24 E28.46903
G1 X80.075 Y96.233 E28.69004
G1 X80.348 Y96.001 E28.70315
G1 X81.317 Y95.502 E28.74303
G1 X82.037 Y95.4 E28.76963
G1 X141.043 Y95.383 E30.92844
G1 X142.163 Y95.673 E30.97076
G1 X142.924 Y96.078 E31.0023
G1 X143.31 Y96.362 E31.01984
G1 X144.012 Y97.22 E31.06039
G1 X144.294 Y97.676 E31.08001
G1 X144.66 Y98.524 E31.1138
G1 X144.786 Y98.987 E31.13136
G1 X146.552 Y108.959 E31.50187
G1 X146.5 Y109.854 E31.53467
G1 X146.203 Y110.666 E31.5663
G1 X145.871 Y111.265 E31.59136
G1 X145.219 Y111.896 E31.62456
G1 X147.591 Y111.896 E31.71134
G1 X148.037 Y111.856 E31.72772
G1 X148.448 Y111.617 E31.74512
G1 X148.598 Y111.467 E31.75288
G1 X148.842 Y111.05 E31.77055
G1 X148.881 Y110.61 E31.78671
G1 X148.903 Y91.063 E32.50186
G1 X149.013 Y90.334 E32.52884
G1 X149.28 Y89.498 E32.56095
G1 X149.579 Y88.863 E32.58662
G1 X150.284 Y87.989 E32.62771
G1 X150.908 Y87.452 E32.65783
G1 X151.551 Y87.05 E32.68557
G1 X152.191 Y86.747 E32.71148
G1 X153.247 Y86.533 E32.7509
G1 X153.627 Y86.502 E32.76485
G1 X158.09 Y86.494 E32.92813
G1 X158.434 Y86.465 E32.94076
G1 X158.738 Y86.382 E32.95229
G1 X159.009 Y86.255 E32.96324
G1 X159.265 Y86.077 E32.97465
G1 X159.465 Y85.877 E32.985
G1 X159.647 Y85.616 E32.99664
G1 X159.765 Y85.364 E33.00682
G1 X159.844 Y85.065 E33.01813
G1 X159.881 Y84.652 E33.0333
G1 X159.881 Y81.496 E33.14877
G1 X160.3 Y80.35 E33.19341
G1 X160.764 Y79.713 E33.22224
G1 X161.202 Y79.267 E33.24511
G1 X161.952 Y78.829 E33.27689
G1 X162.772 Y78.566 E33.3084
G1 X166.194 Y78.559 E33.43359
G1 X167.329 Y78.973 E33.4778
G1 X168.095 Y79.515 E33.51213
G1 X168.489 Y79.999 E33.53496
G1 X168.864 Y80.627 E33.56172
G1 X169.128 Y81.451 E33.59338
G1 X169.135 Y84.764 E33.71459
G1 X168.959 Y86.766 E33.78812
G1 X168.378 Y88.764 E33.86424
G1 X167.777 Y90.048 E33.91611
G1 X166.579 Y91.831 E33.9947
G1 X165.224 Y93.186 E34.06481
G1 X163.427 Y94.395 E34.14405
G1 X161.897 Y95.1 E34.20568
G1 X160.317 Y95.53 E34.26559
G1 X158.135 Y95.757 E34.34585
G1 X158.135 Y111.896 E34.93632
G1 X163.135 Y111.896 E35.11925
G1 X164.281 Y112.315 E35.16389
G1 X164.918 Y112.779 E35.19272
G1 X165.364 Y113.217 E35.21559
G1 X165.802 Y113.967 E35.24737
G1 X166.065 Y114.787 E35.27887
G1 X166.072 Y118.209 E35.40407
G1 X165.658 Y119.344 E35.44827
G1 X165.116 Y120.11 E35.48261
G1 X164.632 Y120.504 E35.50544
G1 X164.004 Y120.879 E35.5322
G1 X163.18 Y121.143 E35.56386
G1 X157.139 Y121.15 E35.78487
G1 X156.866 Y121.382 E35.79798
G1 X155.897 Y121.881 E35.83786
G1 X155.177 Y121.983 E35.86446
G1 X96.176 Y122 E38.02308
G1 X95.072 Y121.714 E38.06481
G1 X94.221 Y121.277 E38.09981
G1 X93.867 Y120.967 E38.11702
G1 X93.208 Y120.171 E38.15483
G1 X92.964 Y119.786 E38.17151
G1 X92.526 Y118.768 E38.21205
G1 X92.423 Y118.372 E38.22702
G1 X90.662 Y108.425 E38.5966
G1 X90.714 Y107.53 E38.6294
G1 X91.024 Y106.665 E38.66302
G1 X91.358 Y106.104 E38.68691
G1 X91.993 Y105.487 E38.7193
G1 X89.63 Y105.487 E38.80575
G1 X89.309 Y105.516 E38.81755
G1 X88.936 Y105.648 E38.83202
G1 X88.753 Y105.776 E38.84019
G1 X88.5 Y106.08 E38.85466
G1 X88.361 Y106.465 E38.86964
G1 X88.333 Y106.776 E38.88106
G1 X88.311 Y126.349 E39.59716
G1 X88.227 Y126.934 E39.61879
G1 X87.991 Y127.778 E39.65085
G1 X87.575 Y128.57 E39.68358
G1 X87.188 Y129.104 E39.70771
G1 X86.519 Y129.771 E39.74227
G1 X86.116 Y130.069 E39.76061
G1 X85.127 Y130.594 E39.80157
G1 X84.232 Y130.808 E39.83524
G1 X83.452 Y130.884 E39.86391
G1 X79.133 Y130.889 E40.02193
G1 X78.777 Y130.92 E40.035
G1 X78.48 Y131.001 E40.04627
G1 X78.2 Y131.132 E40.05758
G1 X77.951 Y131.305 E40.06867
G1 X77.751 Y131.505 E40.07902
G1 X77.578 Y131.754 E40.09011
G1 X77.447 Y132.034 E40.10142
G1 X77.366 Y132.331 E40.11268
G1 X77.333 Y132.718 E40.12689
G1 X77.333 Y135.888 E40.24287
G1 X76.914 Y137.034 E40.28751
G1 X76.45 Y137.671 E40.31635
G1 X76.012 Y138.117 E40.33922
G1 X75.262 Y138.555 E40.37099
G1 X74.442 Y138.818 E40.4025
G1 X71.02 Y138.825 E40.5277
G1 X69.885 Y138.411 E40.5719
G1 X69.119 Y137.869 E40.60623
G1 X68.725 Y137.385 E40.62906
G1 X68.35 Y136.757 E40.65582
G1 X68.086 Y135.933 E40.68748
G1 X68.079 Y132.619 E40.80873
G1 X68.24 Y130.672 E40.8802
G1 X68.724 Y128.865 E40.94864
G1 X69.553 Y127.091 E41.02028
G1 X70.606 Y125.597 E41.08716
G1 X71.962 Y124.223 E41.15778
G1 X73.822 Y122.972 E41.23979
G1 X75.316 Y122.284 E41.29997
G1 X77.109 Y121.798 E41.36794
G1 X79.079 Y121.634 E41.44026
G1 X79.079 Y105.487 E42.03102
G1 X74.079 Y105.487 E42.21395
G1 X72.933 Y105.068 E42.25859
G1 X72.296 Y104.604 E42.28742
G1 X71.85 Y104.166 E42.31029
G1 X71.412 Y103.416 E42.34207
G1 X71.149 Y102.596 E42.37358
G1 X71.142 Y99.174 E42.49877
G1 X71.556 Y98.039 E42.54298
G1 X72.098 Y97.273 E42.57731
G1 X72.582 Y96.879 E42.60014
G0 X72.808 Y97.257
G1 X73.394 Y96.907 E42.62511
G1 X74.103 Y96.68 E42.65235
G1 X80.249 Y96.673 E42.87721
G1 X80.549 Y96.392 E42.89225
G1 X81.45 Y95.928 E42.92932
G1 X82.099 Y95.836 E42.95331
G1 X140.987 Y95.823 E45.10779
G1 X142.002 Y96.086 E45.14615
G1 X142.664 Y96.433 E45.1735
G1 X143.003 Y96.682 E45.18889
G1 X143.671 Y97.499 E45.2275
G1 X143.918 Y97.905 E45.24488
G1 X144.235 Y98.64 E45.27417
G1 X144.361 Y99.103 E45.29173
G1 X146.11 Y108.985 E45.65889
G1 X146.065 Y109.764 E45.68744
G1 X145.818 Y110.453 E45.71422
G1 X145.518 Y110.995 E45.73688
G1 X144.768 Y111.72 E45.77504
G1 X143.93 Y112.073 E45.80831
G1 X142.435 Y112.336 E45.86385
G1 X147.608 Y112.336 E46.05311
G1 X147.986 Y112.302 E46.06699
G1 X148.257 Y112.231 E46.07724
G1 X148.503 Y112.115 E46.08719
G1 X148.733 Y111.954 E46.09747
G1 X148.94 Y111.747 E46.10818
G1 X149.096 Y111.522 E46.11819
G1 X149.215 Y111.272 E46.12832
G1 X149.289 Y110.989 E46.13903
G1 X149.321 Y110.626 E46.15236
G1 X149.339 Y91.125 E46.86582
G1 X149.433 Y90.466 E46.89018
G1 X149.678 Y89.686 E46.92009
G1 X149.955 Y89.099 E46.94384
G1 X150.602 Y88.296 E46.98157
G1 X151.143 Y87.824 E47.00783
G1 X151.739 Y87.448 E47.03362
G1 X152.332 Y87.167 E47.05762
G1 X153.283 Y86.972 E47.09314
G1 X153.663 Y86.941 E47.10709
G1 X158.104 Y86.934 E47.26957
G1 X158.515 Y86.899 E47.28466
G1 X158.89 Y86.797 E47.29888
G1 X159.23 Y86.638 E47.31261
M73 P2
G1 X159.547 Y86.417 E47.32675
G1 X159.803 Y86.161 E47.33999
G1 X160.029 Y85.836 E47.35448
G1 X160.18 Y85.515 E47.36746
G1 X160.279 Y85.141 E47.38161
G1 X160.321 Y84.669 E47.39895
G1 X160.321 Y81.573 E47.51222
G1 X160.691 Y80.561 E47.55164
G1 X161.12 Y79.972 E47.5783
G1 X161.474 Y79.618 E47.59662
G1 X162.133 Y79.233 E47.62454
G1 X162.841 Y79.006 E47.65174
G1 X166.117 Y78.999 E47.7716
G1 X167.123 Y79.366 E47.81078
G1 X167.792 Y79.839 E47.84075
G1 X168.111 Y80.225 E47.85907
G1 X168.461 Y80.811 E47.88404
G1 X168.688 Y81.52 E47.91128
G1 X168.695 Y84.765 E48.03
G1 X168.525 Y86.682 E48.10041
G1 X167.979 Y88.577 E48.17257
G1 X167.378 Y89.861 E48.22443
G1 X166.237 Y91.551 E48.29904
G1 X164.941 Y92.847 E48.36609
G1 X163.242 Y93.996 E48.44113
