;FLAVOR:Marlin
M73 P0
M117 Time Left 0h18m04s
;TIME:1084
;Filament used: 1.57411m
;Layer height: 0.3
;MINX:72.631
;MINY:76.323
;MINZ:0.2
;MAXX:156.603
;MAXY:141.26
;MAXZ:5.5
;TARGET_MACHINE.NAME:Creality Ender-3 Pro
;POSTPROCESSED
;Generated with Cura_SteamEngine 5.5.0
;
;

M140 S70
M105
M190 S70
M104 S235
M105
M109 S235
M82 ;absolute extrusion mode

G28 ;Home

G92 E0 ;Reset Extruder
M420 S1 Z10 ; Use saved Bed Mesh
G1 Z2.0 F3000 ;Move Z Axis up
G1 X10.1 Y20 Z0.28 F5000.0 ;Move to start position
G1 X10.1 Y200.0 Z0.28 F1500.0 E15 ;Draw the first line
G1 X10.4 Y200.0 Z0.28 F5000.0 ;Move to side a little
G1 X10.4 Y20 Z0.28 F1500.0 E30 ;Draw the second line
G92 E0 ;Reset Extruder
G1 Z2.0 F3000 ;Move Z Axis up
G92 E0
G92 E0
G1 F2400 E-0.8
;LAYER_COUNT:18
;LAYER:0
M117 Printing Layer 0 of 17 F45 Short Hook 1IN
M107
G1 F300 Z0.4
G0 F3000 X77.651 Y97.695 Z0.4
;TYPE:SKIRT
G1 F300 Z0.2
G1 F2400 E0
G1 F3000 X78.919 Y97.059 E0.0519
G1 X79.839 Y96.93 E0.08589
G1 X117.987 Y96.91 E1.48158
G1 X119.127 Y97.037 E1.52354
G1 X120.131 Y97.345 E1.56197
G1 X120.665 Y97.591 E1.58348
G1 X131.465 Y103.821 E2.03963
G1 X132.465 Y105.026 E2.09692
G1 X132.935 Y106.143 E2.14126
G1 X133.135 Y107.201 E2.18066
G1 X132.979 Y108.43 E2.22598
G1 X132.762 Y109.272 E2.25779
G1 X132.538 Y109.661 E2.27422
G1 X134.319 Y109.661 E2.33938
G1 X134.53 Y109.502 E2.34904
G1 X134.591 Y109.334 E2.35558
G1 X134.62 Y89.606 E3.07735
G1 X134.763 Y88.708 E3.11062
G1 X134.999 Y87.955 E3.13949
G1 X135.383 Y87.092 E3.17405
G1 X136.125 Y86.154 E3.21781
G1 X136.769 Y85.546 E3.25021
G1 X137.531 Y84.989 E3.28474
G1 X138.486 Y84.595 E3.32254
G1 X139.557 Y84.334 E3.36287
G1 X140.35 Y84.264 E3.392
G1 X144.625 Y84.259 E3.5484
G1 X144.963 Y84.228 E3.56082
G1 X145.273 Y84.05 E3.5739
G1 X145.456 Y83.836 E3.5842
G1 X145.591 Y83.463 E3.59871
G1 X145.591 Y80.54 E3.70565
G1 X145.844 Y79.381 E3.74906
G1 X146.551 Y78.187 E3.79982
G1 X147.006 Y77.619 E3.82645
G1 X148.004 Y76.883 E3.87182
G1 X149.044 Y76.475 E3.91269
G1 X149.644 Y76.325 E3.93532
G1 X152.55 Y76.323 E4.04164
G1 X153.479 Y76.584 E4.07694
G1 X154.317 Y76.942 E4.11028
G1 X155.306 Y77.745 E4.15689
G1 X156.094 Y78.762 E4.20396
G1 X156.603 Y80.236 E4.26101
G1 X156.588 Y83.782 E4.39075
G1 X156.396 Y85.606 E4.45785
G1 X156.084 Y86.87 E4.50548
G1 X155.247 Y88.929 E4.5868
G1 X154.17 Y90.596 E4.65941
G1 X152.981 Y91.94 E4.72506
G1 X151.892 Y92.872 E4.7775
G1 X149.851 Y94.111 E4.86486
G1 X148.544 Y94.64 E4.91645
G1 X146.316 Y95.165 E5.00019
G1 X145.605 Y95.222 E5.02629
G1 X145.605 Y109.661 E5.55456
G1 X149.68 Y109.661 E5.70364
G1 X151.145 Y110.194 E5.76068
G1 X152.13 Y110.842 E5.80382
G1 X152.554 Y111.317 E5.82711
G1 X153.173 Y112.217 E5.86708
G1 X153.603 Y113.703 E5.92367
G1 X153.605 Y116.726 E6.03427
G1 X153.195 Y118.031 E6.08432
G1 X153.04 Y118.32 E6.09632
G1 X152.367 Y119.143 E6.13521
G1 X151.58 Y119.892 E6.17496
G1 X150.306 Y120.532 E6.22712
G1 X149.091 Y120.673 E6.27187
G1 X111.007 Y120.66 E7.66522
G1 X110.141 Y120.546 E7.69718
G1 X109.25 Y120.29 E7.73109
G1 X108.426 Y119.916 E7.7642
G1 X97.883 Y113.83 E8.20958
G1 X96.999 Y112.851 E8.25784
G1 X96.4 Y111.786 E8.30255
G1 X96.115 Y110.395 E8.3545
G1 X96.209 Y109.025 E8.40474
G1 X96.686 Y107.924 E8.44864
G1 X94.966 Y107.924 E8.51156
G1 X94.814 Y107.978 E8.51747
G1 X94.644 Y108.188 E8.52735
G1 X94.614 Y127.977 E9.25135
G1 X94.5 Y128.839 E9.28317
G1 X94.133 Y129.865 E9.32303
G1 X93.701 Y130.672 E9.35652
G1 X93.31 Y131.204 E9.38068
G1 X92.412 Y132.08 E9.42657
G1 X91.696 Y132.598 E9.45891
G1 X90.619 Y133.029 E9.50135
G1 X89.678 Y133.249 E9.5367
G1 X88.885 Y133.319 E9.56583
G1 X84.61 Y133.324 E9.72224
G1 X84.27 Y133.355 E9.73473
G1 X83.951 Y133.539 E9.7482
G1 X83.783 Y133.742 E9.75784
G1 X83.644 Y134.118 E9.77251
G1 X83.644 Y137.076 E9.88073
G1 X83.454 Y137.978 E9.91445
G1 X83.242 Y138.581 E9.93784
G1 X82.347 Y139.912 E9.99652
G1 X81.194 Y140.725 E10.04814
G1 X80.218 Y141.117 E10.08662
G1 X79.661 Y141.258 E10.10764
G1 X76.684 Y141.26 E10.21656
G1 X75.573 Y140.933 E10.25893
G1 X74.926 Y140.643 E10.28487
G1 X73.925 Y139.835 E10.33193
G1 X73.155 Y138.839 E10.37799
G1 X72.631 Y137.341 E10.43605
G1 X72.647 Y133.801 E10.56557
G1 X72.839 Y131.977 E10.63267
G1 X73.13 Y130.775 E10.67792
G1 X74.063 Y128.537 E10.76663
G1 X74.971 Y127.113 E10.82842
G1 X76.342 Y125.557 E10.90429
G1 X77.344 Y124.71 E10.95229
G1 X79.384 Y123.472 E11.0396
G1 X80.691 Y122.943 E11.09118
G1 X82.919 Y122.418 E11.17493
G1 X83.63 Y122.361 E11.20103
G1 X83.63 Y107.922 E11.72929
G1 X79.557 Y107.922 E11.87831
G1 X78.106 Y107.398 E11.93475
G1 X77.076 Y106.66 E11.98111
G1 X76.48 Y105.937 E12.01539
G1 X75.877 Y104.836 E12.06132
G1 X75.631 Y103.686 E12.10434
G1 X75.63 Y100.857 E12.20785
G1 X76.04 Y99.552 E12.25789
G1 X76.195 Y99.263 E12.26989
G1 X76.868 Y98.44 E12.30879
G1 X77.651 Y97.695 E12.34833
G0 X77.908 Y98.058
G1 X79.05 Y97.485 E12.39507
G1 X79.9 Y97.366 E12.42647
G1 X117.987 Y97.35 E13.81993
G1 X119.038 Y97.47 E13.85863
G1 X119.947 Y97.745 E13.89338
G1 X120.481 Y97.991 E13.91489
G1 X131.176 Y104.162 E14.36664
G1 X132.086 Y105.259 E14.41879
G1 X132.512 Y106.27 E14.45893
G1 X132.69 Y107.213 E14.49404
G1 X132.553 Y108.32 E14.53485
G1 X132.351 Y109.104 E14.56447
G1 X131.776 Y110.101 E14.60657
G1 X134.157 Y110.101 E14.69369
G1 X134.491 Y110.071 E14.70596
G1 X134.758 Y109.913 E14.71731
G1 X134.915 Y109.729 E14.72616
G1 X135.031 Y109.412 E14.73851
G1 X135.06 Y89.607 E15.46309
G1 X135.183 Y88.838 E15.49159
G1 X135.401 Y88.134 E15.51855
G1 X135.762 Y87.322 E15.55106
G1 X136.428 Y86.473 E15.59054
G1 X137.029 Y85.901 E15.6209
G1 X137.747 Y85.376 E15.65344
G1 X138.654 Y85.002 E15.68933
G1 X139.596 Y84.772 E15.72481
G1 X140.351 Y84.704 E15.75254
G1 X144.643 Y84.699 E15.90957
G1 X145.1 Y84.657 E15.92636
G1 X145.559 Y84.394 E15.94572
G1 X145.843 Y84.061 E15.96173
G1 X146.004 Y83.616 E15.97904
G1 X146.031 Y83.301 E15.99061
G1 X146.031 Y80.588 E16.08987
G1 X146.259 Y79.543 E16.129
G1 X146.895 Y78.462 E16.17489
G1 X147.315 Y77.937 E16.19948
G1 X148.216 Y77.273 E16.24043
G1 X149.205 Y76.885 E16.2793
G1 X149.696 Y76.765 E16.29779
G1 X152.488 Y76.763 E16.39994
G1 X153.36 Y77.008 E16.43308
G1 X154.087 Y77.322 E16.46205
G1 X154.99 Y78.055 E16.5046
G1 X155.701 Y78.973 E16.54709
G1 X156.163 Y80.31 E16.59884
G1 X156.15 Y83.737 E16.72422
G1 X155.968 Y85.502 E16.78914
G1 X155.676 Y86.704 E16.83439
G1 X154.853 Y88.727 E16.9143
G1 X153.84 Y90.304 E16.98287
G1 X152.651 Y91.648 E17.04852
G1 X151.663 Y92.496 E17.09616
G1 X149.686 Y93.703 E17.18091
G1 X148.379 Y94.232 E17.23249
G1 X146.281 Y94.726 E17.31135
G1 X145.165 Y94.815 E17.35231
G1 X145.165 Y110.101 E17.91156
G1 X149.604 Y110.101 E18.07397
G1 X150.942 Y110.588 E18.12606
G1 X151.84 Y111.179 E18.1654
G1 X152.191 Y111.566 E18.18451
G1 X152.77 Y112.408 E18.2219
G1 X153.163 Y113.766 E18.27362
G1 X153.165 Y116.658 E18.37943
G1 X152.775 Y117.899 E18.42702
G1 X152.698 Y118.043 E18.43299
G1 X152.064 Y118.824 E18.4698
G1 X151.324 Y119.528 E18.50717
G1 X150.178 Y120.104 E18.55409
G1 X149.091 Y120.233 E18.59414
G1 X111.062 Y120.223 E19.98547
G1 X110.26 Y120.122 E20.01505
G1 X109.432 Y119.889 E20.04652
G1 X108.608 Y119.515 E20.07963
G1 X98.164 Y113.484 E20.52086
G1 X97.357 Y112.59 E20.56493
G1 X96.817 Y111.631 E20.60519
G1 X96.558 Y110.366 E20.65243
M73 P1
G1 X96.643 Y109.131 E20.69773
G1 X97.044 Y108.206 E20.73461
G1 X97.457 Y107.484 E20.76504
G1 X94.888 Y107.484 E20.85903
G1 X94.593 Y107.589 E20.87049
G1 X94.383 Y107.764 E20.88049
G1 X94.233 Y108.022 E20.89141
G1 X94.204 Y108.349 E20.90342
G1 X94.178 Y127.919 E21.61941
G1 X94.07 Y128.735 E21.64952
G1 X93.744 Y129.659 E21.68537
G1 X93.346 Y130.411 E21.7165
G1 X92.955 Y130.943 E21.74066
G1 X92.154 Y131.724 E21.78159
G1 X91.484 Y132.209 E21.81185
G1 X90.517 Y132.601 E21.85002
G1 X89.639 Y132.811 E21.88305
G1 X88.884 Y132.879 E21.91079
G1 X84.592 Y132.884 E22.06781
G1 X84.133 Y132.926 E22.08468
G1 X83.663 Y133.198 E22.10454
G1 X83.396 Y133.518 E22.11979
G1 X83.23 Y133.97 E22.13741
G1 X83.204 Y134.285 E22.14897
G1 X83.204 Y137.03 E22.2494
G1 X83.039 Y137.832 E22.27936
G1 X82.845 Y138.383 E22.30073
G1 X82.029 Y139.597 E22.35425
G1 X80.98 Y140.337 E22.40121
G1 X80.11 Y140.69 E22.43556
G1 X79.604 Y140.818 E22.45466
G1 X76.746 Y140.82 E22.55922
G1 X75.753 Y140.531 E22.59706
G1 X75.155 Y140.263 E22.62104
G1 X74.242 Y139.526 E22.66396
G1 X73.546 Y138.626 E22.70559
G1 X73.071 Y137.268 E22.75822
G1 X73.085 Y133.846 E22.88342
G1 X73.267 Y132.081 E22.94834
G1 X73.558 Y130.879 E22.99359
G1 X74.435 Y128.772 E23.07709
G1 X75.302 Y127.403 E23.13637
G1 X76.628 Y125.892 E23.20992
G1 X77.573 Y125.086 E23.25536
G1 X79.549 Y123.88 E23.34006
G1 X80.856 Y123.351 E23.39164
G1 X82.954 Y122.857 E23.4705
G1 X84.07 Y122.768 E23.51146
G1 X84.07 Y107.482 E24.07072
G1 X79.634 Y107.482 E24.23301
G1 X78.313 Y107.005 E24.2844
G1 X77.378 Y106.335 E24.32648
G1 X76.846 Y105.69 E24.35707
G1 X76.293 Y104.681 E24.39917
G1 X76.071 Y103.641 E24.43807
G1 X76.07 Y100.925 E24.53744
G1 X76.46 Y99.684 E24.58503
G1 X76.537 Y99.54 E24.59101
G1 X77.171 Y98.759 E24.62781
G1 X77.908 Y98.058 E24.66503
G0 X78.165 Y98.421
G1 X79.181 Y97.911 E24.70662
G1 X79.961 Y97.802 E24.73543
G1 X117.987 Y97.79 E26.12666
G1 X118.948 Y97.903 E26.16206
G1 X119.763 Y98.145 E26.19316
G1 X120.297 Y98.391 E26.21467
G1 X130.887 Y104.503 E26.66202
G1 X131.705 Y105.489 E26.70889
G1 X132.089 Y106.401 E26.7451
G1 X132.245 Y107.226 E26.77581
G1 X132.127 Y108.21 E26.81207
G1 X131.94 Y108.936 E26.8395
G1 X131.015 Y110.541 E26.90728
G1 X134.174 Y110.541 E27.02285
G1 X134.629 Y110.5 E27.03957
G1 X135.048 Y110.253 E27.05736
G1 X135.3 Y109.956 E27.07161
G1 X135.447 Y109.552 E27.08734
G1 X135.471 Y109.26 E27.09806
G1 X135.495 Y89.674 E27.81464
G1 X135.604 Y88.966 E27.84084
G1 X135.803 Y88.313 E27.86582
G1 X136.143 Y87.549 E27.89641
G1 X136.733 Y86.79 E27.93159
G1 X137.289 Y86.256 E27.95979
G1 X137.963 Y85.763 E27.99034
G1 X138.822 Y85.409 E28.02433
G1 X139.636 Y85.21 E28.05499
G1 X140.352 Y85.144 E28.0813
G1 X144.661 Y85.139 E28.23895
G1 X145.037 Y85.105 E28.25276
G1 X145.328 Y85.028 E28.26377
G1 X145.606 Y84.896 E28.27503
G1 X145.842 Y84.733 E28.28553
G1 X146.068 Y84.506 E28.29725
G1 X146.227 Y84.28 E28.30736
G1 X146.354 Y84.004 E28.31847
G1 X146.439 Y83.693 E28.33027
G1 X146.471 Y83.314 E28.34418
G1 X146.471 Y80.636 E28.44216
G1 X146.674 Y79.705 E28.47702
G1 X147.239 Y78.737 E28.51803
G1 X147.624 Y78.255 E28.5406
G1 X148.428 Y77.663 E28.57713
G1 X149.366 Y77.295 E28.61399
G1 X149.748 Y77.205 E28.62835
G1 X152.426 Y77.203 E28.72633
G1 X153.241 Y77.432 E28.7573
G1 X153.857 Y77.702 E28.78191
G1 X154.672 Y78.364 E28.82032
G1 X155.309 Y79.186 E28.85837
G1 X155.723 Y80.384 E28.90474
G1 X155.712 Y83.693 E29.02581
G1 X155.54 Y85.398 E29.0885
G1 X155.248 Y86.6 E29.13376
G1 X154.461 Y88.522 E29.20974
G1 X153.51 Y90.012 E29.27441
G1 X152.321 Y91.356 E29.34007
G1 X151.377 Y92.161 E29.38546
G1 X149.521 Y93.295 E29.46503
G1 X148.214 Y93.824 E29.51662
G1 X146.246 Y94.287 E29.59059
G1 X144.992 Y94.387 E29.63661
G1 X144.725 Y94.389 E29.64638
G1 X144.725 Y110.541 E30.23732
G1 X149.525 Y110.541 E30.41293
G1 X150.746 Y110.985 E30.46047
G1 X151.552 Y111.516 E30.49578
G1 X151.828 Y111.815 E30.51067
G1 X152.367 Y112.599 E30.54547
G1 X152.723 Y113.829 E30.59232
G1 X152.725 Y116.59 E30.69334
G1 X152.355 Y117.767 E30.73848
G1 X151.761 Y118.505 E30.77314
G1 X151.068 Y119.164 E30.80812
G1 X150.05 Y119.676 E30.84981
G1 X149.091 Y119.793 E30.88516
G1 X111.114 Y119.786 E32.27459
G1 X110.379 Y119.698 E32.30168
G1 X109.551 Y119.465 E32.33314
G1 X108.828 Y119.134 E32.36224
G1 X98.445 Y113.138 E32.8009
G1 X97.717 Y112.332 E32.84064
G1 X97.234 Y111.473 E32.87669
G1 X97.001 Y110.337 E32.91912
G1 X97.077 Y109.237 E32.95946
G1 X97.448 Y108.381 E32.99359
G1 X98.219 Y107.044 E33.05006
G1 X95.033 Y107.044 E33.16662
G1 X94.734 Y107.072 E33.17761
G1 X94.37 Y107.202 E33.19175
G1 X94.043 Y107.475 E33.20734
G1 X93.804 Y107.886 E33.22473
G1 X93.764 Y108.332 E33.24111
G1 X93.742 Y127.861 E33.95561
G1 X93.64 Y128.63 E33.98399
G1 X93.354 Y129.455 E34.01593
G1 X92.991 Y130.15 E34.04462
G1 X92.6 Y130.682 E34.06878
G1 X91.896 Y131.368 E34.10474
G1 X91.27 Y131.821 E34.13301
G1 X90.412 Y132.174 E34.16695
G1 X89.599 Y132.373 E34.19758
G1 X88.883 Y132.439 E34.22388
G1 X84.574 Y132.444 E34.38153
G1 X84.198 Y132.478 E34.39534
G1 X83.906 Y132.555 E34.40639
G1 X83.632 Y132.684 E34.41747
G1 X83.379 Y132.86 E34.42875
G1 X83.179 Y133.06 E34.4391
G1 X83.012 Y133.3 E34.44979
G1 X82.878 Y133.587 E34.46138
G1 X82.796 Y133.888 E34.4728
G1 X82.764 Y134.273 E34.48693
G1 X82.764 Y136.985 E34.58615
G1 X82.608 Y137.743 E34.61447
G1 X82.448 Y138.186 E34.6317
G1 X81.71 Y139.284 E34.6801
G1 X80.769 Y139.947 E34.72221
G1 X79.944 Y140.282 E34.75479
G1 X79.551 Y140.378 E34.76959
G1 X76.808 Y140.38 E34.86995
G1 X75.933 Y140.129 E34.90325
G1 X75.384 Y139.883 E34.92526
G1 X74.559 Y139.217 E34.96405
G1 X73.937 Y138.413 E35.00124
G1 X73.511 Y137.195 E35.04845
G1 X73.523 Y133.89 E35.16937
G1 X73.695 Y132.185 E35.23207
G1 X73.986 Y130.983 E35.27731
G1 X74.808 Y129.006 E35.35565
G1 X75.633 Y127.693 E35.41238
G1 X76.914 Y126.227 E35.48361
G1 X77.859 Y125.421 E35.52905
G1 X79.714 Y124.288 E35.60857
G1 X81.021 Y123.759 E35.66016
G1 X82.989 Y123.296 E35.73413
G1 X84.243 Y123.196 E35.78015
G1 X84.51 Y123.194 E35.78992
G1 X84.51 Y107.042 E36.38086
G1 X79.712 Y107.042 E36.5564
G1 X78.519 Y106.611 E36.60281
G1 X77.68 Y106.01 E36.64057
G1 X77.214 Y105.445 E36.66736
G1 X76.709 Y104.524 E36.70579
G1 X76.511 Y103.596 E36.74051
G1 X76.51 Y100.993 E36.83574
G1 X76.88 Y99.816 E36.88088
G1 X77.474 Y99.078 E36.91554
G1 X78.165 Y98.421 E36.95043
G0 X78.422 Y98.784
G1 X79.312 Y98.337 E36.98686
G1 X80.022 Y98.238 E37.01309
G1 X117.987 Y98.23 E38.40208
G1 X118.825 Y98.326 E38.43294
G1 X119.579 Y98.545 E38.46167
G1 X120.113 Y98.791 E38.48318
G1 X130.598 Y104.844 E38.92612
G1 X131.324 Y105.719 E38.96772
G1 X131.666 Y106.532 E38.99999
G1 X131.8 Y107.241 E39.02639
M73 P2
G1 X131.701 Y108.1 E39.05802
G1 X131.529 Y108.768 E39.08326
G1 X130.361 Y110.794 E39.16882
G1 X130.207 Y110.981 E39.17768
G1 X134.192 Y110.981 E39.32348
G1 X134.575 Y110.946 E39.33755
G1 X134.849 Y110.874 E39.34791
G1 X135.088 Y110.762 E39.35757
G1 X135.33 Y110.593 E39.36837
G1 X135.532 Y110.391 E39.37882
G1 X135.683 Y110.176 E39.38843
G1 X135.804 Y109.917 E39.39889
G1 X135.881 Y109.633 E39.40966
G1 X135.911 Y109.272 E39.42291
G1 X135.93 Y89.739 E40.13755
G1 X136.026 Y89.092 E40.16148
G1 X136.205 Y88.492 E40.18438
G1 X136.523 Y87.777 E40.21301
G1 X137.039 Y87.106 E40.24398
G1 X137.549 Y86.611 E40.26999
G1 X138.179 Y86.15 E40.29855
G1 X138.99 Y85.816 E40.33064
G1 X139.678 Y85.648 E40.35655
G1 X140.353 Y85.584 E40.38135
G1 X144.678 Y85.579 E40.53959
G1 X145.112 Y85.54 E40.55553
G1 X145.483 Y85.442 E40.56957
G1 X145.825 Y85.28 E40.58342
G1 X146.129 Y85.069 E40.59695
G1 X146.405 Y84.792 E40.61126
G1 X146.611 Y84.499 E40.62436
G1 X146.77 Y84.154 E40.63826
G1 X146.873 Y83.776 E40.6526
G1 X146.911 Y83.327 E40.66908
G1 X146.911 Y80.684 E40.76578
G1 X147.089 Y79.866 E40.79641
G1 X147.583 Y79.011 E40.83253
G1 X147.931 Y78.575 E40.85294
G1 X148.64 Y78.053 E40.88516
G1 X149.527 Y77.705 E40.92002
G1 X149.8 Y77.645 E40.93024
G1 X152.364 Y77.643 E41.02405
G1 X153.122 Y77.856 E41.05286
G1 X153.626 Y78.081 E41.07305
G1 X154.356 Y78.674 E41.10746
G1 X154.916 Y79.397 E41.14092
G1 X155.283 Y80.458 E41.18199
G1 X155.274 Y83.65 E41.29877
G1 X155.112 Y85.294 E41.35921
G1 X154.82 Y86.496 E41.40447
G1 X154.068 Y88.319 E41.47662
G1 X153.139 Y89.775 E41.53981
G1 X152.035 Y91.021 E41.60071
G1 X151.091 Y91.826 E41.6461
G1 X149.356 Y92.887 E41.72051
G1 X148.049 Y93.416 E41.77209
G1 X146.211 Y93.848 E41.84117
G1 X144.957 Y93.948 E41.8872
G1 X144.285 Y93.951 E41.91178
G1 X144.285 Y110.981 E42.53485
G1 X149.448 Y110.981 E42.72374
G1 X150.544 Y111.38 E42.76641
G1 X151.267 Y111.856 E42.79808
G1 X151.465 Y112.064 E42.80859
G1 X151.964 Y112.79 E42.84082
G1 X152.283 Y113.892 E42.88279
G1 X152.285 Y116.522 E42.97901
G1 X151.96 Y117.556 E43.01867
G1 X151.418 Y118.229 E43.05028
G1 X150.812 Y118.8 E43.08075
G1 X149.922 Y119.248 E43.1172
G1 X149.091 Y119.353 E43.14785
G1 X111.163 Y119.349 E44.53548
